!!!!SEGMENT: pl-cz--i-10--006_engel-jan--requiem-agnus-dei.krn
!!!cenid: 17xx:881
!!!COM: Engel, Jan
!!!COM-rismid: pe30009138
!!!CDT: <1772->1788
!!!CNT:
!!!OPR: Requiem
!!!OTL: Agnus Dei
!!!OMV: 006
!!!PDT:
!!!AGN: Sacred; Requiem
!!!SMS-siglum: PL-CZ
!!!SMS-shelfmark: I-10
!!!SMS-shelfwork: 001-006 M
!!!SMS-variant:
!!!SMS-altvar:
!!!NIFC-rismid: 300000291
!!!URL-scan: http://repozytorium.nifc.pl/skany/pl-cz-nut--i-10
!!!ONB-nifc: UWAGA: części Requiem: Requiem, Dies ira, Domine Jesu Christe,
!!!AIN: 1 empty
!!!key:
**kern	**dynam	**kernyy	**dynam	**kernyy	**dynam	**kernyy	**dynam	**kernyy	**dynam	**kernyy	**text	**dynam	**kernyy	**text	**kernyy	**text	**kernyy	**text	**dynam	**kernyy	**dynam	**kernyy	**dynam	**kernyy	**dynam	**kernyy	**dynam	**kernyy	**dynam	**kernyy	**dynam
*part15	*part15	*part14	*part14	*part13	*part13	*part12	*part12	*part11	*part11	*part10	*part10	*part10	*part9	*part9	*part8	*part8	*part7	*part7	*part7	*part6	*part6	*part5	*part5	*part4	*part4	*part3	*part3	*part2	*part2	*part1	*part1
*staff15	*	*staff14	*	*staff13	*	*staff12	*	*staff11	*	*staff10	*staff10	*	*staff9	*staff9	*staff8	*staff8	*staff7	*staff7	*	*staff6	*	*staff5	*	*staff4	*	*staff3	*	*staff2	*	*staff1	*
*Iempty	*	*	*	*	*	*	*	*	*	*	*	*	*	*	*	*	*	*	*	*	*	*	*	*	*	*	*	*	*	*	*
*I"Fundamento.	*	*I"Viola IIda	*	*I"Viola Ima	*	*I"Violino Secondo.	*	*I"Violino. Primo.	*	*I"Baſso.	*	*	*I"Tenore	*	*I"Alto.	*	*I"Canto.	*	*	*I"Cornu Secondo in Dis.	*	*I"Cornu Primo in Dis	*	*I"Clarinetto Secondo in B	*	*I"Clarinetto Primo in B.	*	*I"Flauto Secondo.	*	*I"Flauto Primo	*
*I'bc	*	*I'vla 2	*	*I'vla 1	*	*I'vl 2	*	*I'vl 1	*	*I'B	*	*	*I'T.	*	*I'A	*	*I'S	*	*	*I'cor 2 in Dis	*	*I'cor 1 in Dis	*	*I'cl 2 in B	*	*I'cl 1 in B	*	*I'fl 2	*	*I'fl 1	*
*clefF4	*	*clefC3	*	*clefC3	*	*clefG2	*	*clefG2	*	*clefF4	*	*	*clefC4	*	*clefC3	*	*clefC1	*	*	*clefG2	*	*clefG2	*	*clefG2	*	*clefG2	*	*clefG2	*	*clefG2	*
*	*	*	*	*	*	*	*	*	*	*	*	*	*	*	*	*	*	*	*	*ITrd-2c-3	*	*ITrd-2c-3	*	*ITrd1c2	*	*ITrd1c2	*	*	*	*	*
*k[b-e-a-]	*	*k[a-e-b-]	*	*k[a-e-b-]	*	*k[b-e-a-]	*	*k[b-e-a-]	*	*k[b-a-e-]	*	*	*k[a-e-b-]	*	*k[a-e-b-]	*	*k[e-a-b-]	*	*	*k[b-e-a-]	*	*k[b-e-a-]	*	*k[b-e-a-]	*	*k[b-e-a-]	*	*k[b-e-a-]	*	*k[b-e-a-]	*
*E-:	*	*E-:	*	*E-:	*	*E-:	*	*E-:	*	*E-:	*	*	*E-:	*	*E-:	*	*E-:	*	*	*	*	*	*	*E-:	*	*E-:	*	*E-:	*	*E-:	*
*M3/4	*	*M3/4	*	*M3/4	*	*M3/4	*	*M3/4	*	*M3/4	*	*	*M3/4	*	*M3/4	*	*M3/4	*	*	*M3/4	*	*M3/4	*	*M3/4	*	*M3/4	*	*M3/4	*	*M3/4	*
=1	=1	=1	=1	=1	=1	=1	=1	=1	=1	=1	=1	=1	=1	=1	=1	=1	=1	=1	=1	=1	=1	=1	=1	=1	=1	=1	=1	=1	=1	=1	=1
*	*	*	*	*	*	*	*	*	*below	*	*	*	*2\right	*	*2\right	*	*2\right	*	*	*2\right	*	*2\right	*	*	*	*2\right	*	*	*	*	*
!	!	!	!	!	!	!	!	!LO:SIC:o=:v:	!	!	!	!	!	!	!	!	!	!	!	!	!	!	!	!	!	!	!	!LO:SIC:o:s=:v:8 right global	!	!	!
!	!	!LO:TX:i:a:t=Tutti	!	!LO:TX:i:a:t=Tutti	!	!LO:TX:i:a:t=Adagio	!	!LO:TX:i:a:t=Adagio	!	!LO:TX:i:a:t=Adagio	!	!	!	!	!LO:TX:i:a:t=Tutti	!	!LO:TX:i:a:t=Adagio	!	!	!LO:TX:i:a:t=Tutti	!	!LO:TX:i:a:t=Tutti	!	!LO:TX:i:a:t=Tutti	!	!	!	!LO:TX:i:a:t=Tutti	!	!LO:TX:i:a:t=Tutti	!
!LO:TX:i:a:t=Adagio	!	!LO:TX:rj:i:a:t=Adagio	!	!LO:TX:rj:i:a:t=Adagio	!	!LO:TX:rj:i:a:t=Tutti	!	!LO:TX:rj:i:a:t=Tutti	!	!LO:TX:rj:i:a:t=Tutti	!	!	!LO:TX:i:a:t=Tutti	!	!LO:TX:i:a:t=Adagio	!	!LO:TX:i:a:t=Tutti	!	!	!LO:TX:rj:i:a:t=Adagio	!	!LO:TX:rj:i:a:t=Adagio	!	!LO:TX:rj:i:a:t=Adagio	!	!LO:TX:i:a:t=Adagio	!	!LO:TX:rj:i:a:t=Adagio	!	!LO:TX:rj:i:a:t=Adagio	!
!LO:TX:rj:i:b:t=Agnus	!	!LO:TX:rj:i:b:t=Agnus	!	!LO:TX:rj:i:b:t=Agnus	!	!LO:TX:rj:i:b:t=Agnus	!	!LO:TX:rj:i:b:t=Agnus	!	!LO:TX:rj:i:b:t=Agnus	!	!	!LO:TX:rj:i:b:t=Agnus	!	!LO:TX:rj:i:b:t=Agnus	!	!LO:TX:rj:b:i:t=Agnus	!	!	!LO:TX:rj:i:b:t=Agnus	!	!LO:TX:rj:i:b:t=Agnus	!	!LO:TX:rj:i:b:t=Agnus.	!	!LO:TX:rj:i:b:t=Agnus	!	!LO:TX:rj:i:b:t=Agnus	!	!LO:TX:rj:i:b:t=Agnus	!
8C/L	.	8c\L	.	8c\L	.	8e-/L	.	8cc\L	.	[2.C/	A-	.	[<2.e-\	A-	[<2.g\	A-	[<2.cc\	A-	.	2.ee-\	.	2.gg\	.	[2.cc\	.	2.cc\	.	8ccc\L	.	8ccc\L	.
8C/	.	8c\	.	8c\	.	8e-/	.	8cc\	.	.	.	.	.	.	.	.	.	.	.	.	.	.	.	.	.	.	.	8ccc\	.	8ccc\	.
8C/	.	8c\	.	8c\	.	8e-/	.	8cc\	.	.	.	.	.	.	.	.	.	.	.	.	.	.	.	.	.	.	.	8ccc\	.	8ccc\	.
8C/	.	8c\	.	8c\	.	8e-/	.	8cc\	.	.	.	.	.	.	.	.	.	.	.	.	.	.	.	.	.	.	.	8ccc\	.	8ccc\	.
8C/	.	8c\	.	8c\	.	8e-/	.	8cc\	.	.	.	.	.	.	.	.	.	.	.	.	.	.	.	.	.	.	.	8ccc\	.	8ccc\	.
8C/J	.	8c\J	.	8c\J	.	8e-/J	.	8cc\J	.	.	.	.	.	.	.	.	.	.	.	.	.	.	.	.	.	.	.	8ccc\J	.	8ccc\J	.
=2	=2	=2	=2	=2	=2	=2	=2	=2	=2	=2	=2	=2	=2	=2	=2	=2	=2	=2	=2	=2	=2	=2	=2	=2	=2	=2	=2	=2	=2	=2	=2
!	!	!LO:SIC:s:o=:v: 4 center	!	!LO:SIC:s:o=:v: 4 center	!	!	!	!	!	!	!	!	!	!	!	!	!	!	!	!	!	!	!	!	!	!	!	!LO:SIC:s:o=:v: 4 center	!	!	!
4C/	.	4c\	.	4c\	.	8e-/	.	8cc\	.	2C/]	.	.	2e-\]	.	2g\]	.	2cc\]	.	.	2ee-\	.	2gg\	.	2.cc\]	.	2.cc\	.	4ccc\	.	4ccc\	.
!	!	!	!	!	!	!LO:SIC:s:o=:v: 4 center	!	!LO:SIC:s:o=:v: 4 center	!	!	!	!	!	!	!	!	!	!	!	!	!	!	!	!	!	!	!	!	!	!	!
.	.	.	.	.	.	4gg\	.	4gg\	.	.	.	.	.	.	.	.	.	.	.	.	.	.	.	.	.	.	.	.	.	.	.
4E-/	.	4e-\	.	4e-\	.	.	.	.	.	.	.	.	.	.	.	.	.	.	.	.	.	.	.	.	.	.	.	4eee-\	.	4eee-\	.
.	.	.	.	.	.	4ee-\	.	4ee-\	.	.	.	.	.	.	.	.	.	.	.	.	.	.	.	.	.	.	.	.	.	.	.
!	!	!	!	!	!	!	!	!	!	!	!	!	!LO:SIC:s:o=:v: 4 center	!	!LO:SIC:s:o=:v: 4 center	!	!LO:SIC:s:o=:v: 4 center	!	!	!	!	!	!	!	!	!	!	!	!	!	!
4C/	.	4c\	.	4c\	.	.	.	.	.	4C/	-gnus	.	4e-\	-gnus	4g\	-gnus	4cc\	-gnus	.	4r	.	4r	.	.	.	.	.	4ccc\	.	4ccc\	.
!	!	!	!	!	!	!LO:SIC:s:o=:v:16 center	!	!LO:SIC:s:o=:v:16 center	!	!	!	!	!	!	!	!	!	!	!	!	!	!	!	!	!	!	!	!	!	!	!
.	.	.	.	.	.	16gg\LL	.	16gg\LL	.	.	.	.	.	.	.	.	.	.	.	.	.	.	.	.	.	.	.	.	.	.	.
.	.	.	.	.	.	16cc\JJ	.	16cc\JJ	.	.	.	.	.	.	.	.	.	.	.	.	.	.	.	.	.	.	.	.	.	.	.
=3	=3	=3	=3	=3	=3	=3	=3	=3	=3	=3	=3	=3	=3	=3	=3	=3	=3	=3	=3	=3	=3	=3	=3	=3	=3	=3	=3	=3	=3	=3	=3
!LO:SIC:s:o=:v: 4 center	!	!	!	!	!	!	!	!	!	!	!	!	!	!	!	!	!	!	!	!	!	!LO:TX:i:a:t=2.	!	!	!	!LO:SIC:s:o=:v: 4 center	!	!	!	!	!
!	!	!	!	!	!	!	!	!	!	!	!	!	!	!	!	!	!	!	!	!LO:N:vis=0	!	!LO:N:vis=0	!	!	!	!	!	!	!	!	!
4D\	.	4d\	.	4d\	.	4cc\	.	4cc\	.	2D/	De-	.	2d\	de-	(8f\L	De-	4cc\	De-	.	1.r	.	1.r	.	[2.f/	.	4cc\	.	4ddd\	.	4ddd\	.
.	.	.	.	.	.	.	.	.	.	.	.	.	.	.	8e-\J)	.	.	.	.	.	.	.	.	.	.	.	.	.	.	.	.
*	*	*	*	*	*	*	*	*	*	*	*	*	*	*	*	*	*	*	*	*	*	*	*	*	*	*	*	*2\right	*	*	*
!	!	!	!	!	!	!LO:SIC:o=:v:	!	!	!	!	!	!	!	!	!	!	!	!	!	!	!	!	!	!	!	!LO:SIC:o:s=:v:8 right global	!	!	!	!	!
4D\	.	4d\	.	4d\	.	8bn\	.	8bn\	.	.	.	.	.	.	4f\	-i	4bn\	-i	.	.	.	.	.	.	.	8bX\L	.	2ddd\	.	4ddd\	.
.	.	.	.	.	.	4dd\	.	4dd\	.	.	.	.	.	.	.	.	.	.	.	.	.	.	.	.	.	8a-\J	.	.	.	.	.
4D\	.	4d\	.	4d\	.	.	.	.	.	4D/	-i	.	4d\	-i	4r	.	4r	.	.	.	.	.	.	.	.	4b\	.	.	.	4ddd\	.
.	.	.	.	.	.	[8ff\	.	[8ff\	.	.	.	.	.	.	.	.	.	.	.	.	.	.	.	.	.	.	.	.	.	.	.
=4	=4	=4	=4	=4	=4	=4	=4	=4	=4	=4	=4	=4	=4	=4	=4	=4	=4	=4	=4	=4	=4	=4	=4	=4	=4	=4	=4	=4	=4	=4	=4
*	*	*	*	*	*	*	*	*	*	*2\right	*	*	*	*	*	*	*	*	*	*	*	*	*	*	*	*	*	*	*	*	*
!	!	!	!	!	!	!	!	!	!	!	!	!	!	!	!	!	!	!	!	!	!	!	!	!	!	!LO:SIC:s=:v:2.cc#	!	!	!	!LO:SIC:s:o=:v: 4 center	!
4G\	.	4G/	.	4G/	.	8ff\]	.	8ff\]	.	2G\	A-	.	2d\	A-	2f\	A-	4r	.	.	.	.	.	.	2.f/]	.	2.b-\	.	4gg\	.	4gg\	.
.	.	.	.	.	.	4dd\	.	4dd\	.	.	.	.	.	.	.	.	.	.	.	.	.	.	.	.	.	.	.	.	.	.	.
!	!	!	!	!	!	!	!	!	!	!	!	!	!	!	!	!	!LO:SIC:s=:v:4bn	!	!	!	!	!	!	!	!	!	!	!	!	!	!
4G\	.	4G/	.	4G/	.	.	.	.	.	.	.	.	.	.	.	.	4b-\	A-	.	.	.	.	.	.	.	.	.	2gg\	.	4gg\	.
.	.	.	.	.	.	4bn\	.	4bn\	.	.	.	.	.	.	.	.	.	.	.	.	.	.	.	.	.	.	.	.	.	.	.
!	!	!	!	!	!	!	!	!	!	!LO:SIC:s:o=:v: 4 center	!	!	!	!	!	!	!LO:SIC:s=:v:4bn	!	!	!	!	!	!	!	!	!	!	!	!	!	!
4G\	.	4G/	.	4G/	.	.	.	.	.	4G\	-gnus	.	4d\	-gnus	4f\	-gnus	4b-\	-gnus	.	.	.	.	.	.	.	.	.	.	.	4gg\	.
.	.	.	.	.	.	8ff\	.	8ff\	.	.	.	.	.	.	.	.	.	.	.	.	.	.	.	.	.	.	.	.	.	.	.
!	!	!LO:LB:g=original	!	!LO:LB:g=original	!	!LO:LB:g=original	!	!LO:LB:g=original	!	!	!	!	!	!	!	!	!	!	!	!	!	!	!	!	!	!	!	!	!	!	!
=5	=5	=5	=5	=5	=5	=5	=5	=5	=5	=5	=5	=5	=5	=5	=5	=5	=5	=5	=5	=5	=5	=5	=5	=5	=5	=5	=5	=5	=5	=5	=5
!	!	!	!	!	!	!LO:SIC:s:o=:v:32 center	!	!LO:SIC:s:o=:v:32 center	!	!	!	!	!	!	!	!	!	!	!	!	!	!	!	!	!	!	!	!	!	!	!
4C/	.	4C/	.	4c/	.	32ee-\LLL	.	32ee-\LLL	.	4G\	De-	.	8c\L	De-	8e-\L	De-	4cc\	De-	.	4r	.	4r	.	2.e-/	.	4cc\	.	4ccc\	.	4ccc\	.
.	.	.	.	.	.	32dd\JJ	.	32dd\JJ	.	.	.	.	.	.	.	.	.	.	.	.	.	.	.	.	.	.	.	.	.	.	.
.	.	.	.	.	.	8.cc\J	.	8.cc\J	.	.	.	.	.	.	.	.	.	.	.	.	.	.	.	.	.	.	.	.	.	.	.
.	.	.	.	.	.	.	.	.	.	.	.	.	8d\J	.	8f\J	.	.	.	.	.	.	.	.	.	.	.	.	.	.	.	.
*	*	*	*	*	*	*	*	*	*	*	*	*	*	*	*	*	*	*	*	*	*	*	*	*	*	*	*	*	*	*2\right	*
4C/	.	4c\	.	4C/	.	8gg\	.	8gg\	.	4E-\	-i	.	4e-\	-i	4g\	-i	4cc\	-i	.	4r	.	4r	.	.	.	4g/	.	4ccc\	.	2ccc\	.
.	.	.	.	.	.	4cc\	.	4cc\	.	.	.	.	.	.	.	.	.	.	.	.	.	.	.	.	.	.	.	.	.	.	.
!	!	!	!	!	!	!	!	!	!	!	!	!	!	!	!	!	!	!	!	!LO:SIC:s:o=:v: 4 center	!	!LO:SIC:s:o=:v: 4 center	!	!	!	!	!	!	!	!	!
4C/	.	4C/	.	4c\	.	.	.	.	.	4C/	qui	.	4e-\	qui	4g\	qui	4cc\	qui	.	4ee-\	.	[4ccc\	.	.	.	4cc\	.	4ccc\	.	.	.
.	.	.	.	.	.	8cc\	.	8ee-\	.	.	.	.	.	.	.	.	.	.	.	.	.	.	.	.	.	.	.	.	.	.	.
!	!	!	!	!	!	!	!	!	!	!LO:LB:g=original	!	!	!LO:LB:g=original	!	!	!	!	!	!	!	!	!	!	!	!	!	!	!	!	!	!
=6	=6	=6	=6	=6	=6	=6	=6	=6	=6	=6	=6	=6	=6	=6	=6	=6	=6	=6	=6	=6	=6	=6	=6	=6	=6	=6	=6	=6	=6	=6	=6
*	*	*2\right	*	*2\right	*	*	*	*	*	*	*	*	*	*	*	*	*	*	*	*	*	*	*	*	*	*	*	*	*	*	*
4D\	.	2d\	.	2d\	.	4cc\	.	8ff\	.	4D/	Tol-	.	8d\L	tol-	4f\	Tol-	4cc\	tol-	.	2.ff\	.	4ccc\]	.	2.f/	.	4cc\	.	2ddd\	.	4ddd\	.
.	.	.	.	.	.	.	.	4ff\	.	.	.	.	8e-\J	.	.	.	.	.	.	.	.	.	.	.	.	.	.	.	.	.	.
4D\	.	.	.	.	.	4b-\	.	.	.	4D/	-lis	.	4f\	-lis	4f\	-lis	4b-\	-lis	.	.	.	4bb-\	.	.	.	4b-\	.	.	.	2ddd\	.
.	.	.	.	.	.	.	.	4ff\	.	.	.	.	.	.	.	.	.	.	.	.	.	.	.	.	.	.	.	.	.	.	.
4D\	.	4d\	.	4d\	.	4a-\	.	.	.	4D/	pec-	.	4B-\	pec-	4f\	pec-	4a-\	pec-	.	.	.	4aa-\	.	.	.	4a-\	.	4ddd\	.	.	.
.	.	.	.	.	.	.	.	8a-/	.	.	.	.	.	.	.	.	.	.	.	.	.	.	.	.	.	.	.	.	.	.	.
!	!	!	!	!	!	!	!	!	!	!	!	!	!	!	!LO:LB:g=original	!	!LO:LB:g=original	!	!	!	!	!	!	!	!	!	!	!LO:LB:g=original	!	!	!
=7	=7	=7	=7	=7	=7	=7	=7	=7	=7	=7	=7	=7	=7	=7	=7	=7	=7	=7	=7	=7	=7	=7	=7	=7	=7	=7	=7	=7	=7	=7	=7
!	!	!	!	!	!	!	!	!	!	!	!	!	!	!	!LO:SIC:o=:v:	!	!LO:SIC:o=:v:	!	!	!	!	!	!	!	!	!	!	!	!	!	!
4E-\	.	4E-/	.	4e-\	.	8g/	.	8g/	.	4E-\	-ca-	.	4B-\	-ca-	(8e-\L	-ca-	8g\L	-ca-	.	8ee-\L	.	4gg\	.	8e-/L	.	8g\L	.	4eee-\	.	4eee-\	.
.	.	.	.	.	.	4e-/	.	4e-/	.	.	.	.	.	.	8f\J	.	8a-\J	.	.	8ff\J	.	.	.	8f/J	.	8a-\J	.	.	.	.	.
4EE-/	.	4e-\	.	4E-/	.	.	.	.	.	4E-\	-ta	.	4B-\	-ta	4g\	.	4b-\	-ta	.	4gg\	.	4bb-\	.	4g/	.	4b-\	.	2eee-\	.	2eee-\	.
.	.	.	.	.	.	4a-/	.	4b-\	.	.	.	.	.	.	.	.	.	.	.	.	.	.	.	.	.	.	.	.	.	.	.
4E-\	.	4E-/	.	4e-\	.	.	.	.	.	4E-\	pec-	.	4B-\	pec-	4g\)	-ta	4ee-\	pec-	.	4gg\	.	4eee-\	.	4g/	.	4ee-\	.	.	.	.	.
.	.	.	.	.	.	8ee-\	.	8ee-\	.	.	.	.	.	.	.	.	.	.	.	.	.	.	.	.	.	.	.	.	.	.	.
!LO:LB:g=original	!	!	!	!	!	!	!	!	!	!	!	!	!	!	!	!	!	!	!	!	!	!	!	!	!	!	!	!	!	!LO:LB:g=original	!
=8	=8	=8	=8	=8	=8	=8	=8	=8	=8	=8	=8	=8	=8	=8	=8	=8	=8	=8	=8	=8	=8	=8	=8	=8	=8	=8	=8	=8	=8	=8	=8
!	!	!	!	!	!	!	!	!	!	!	!	!	!	!	!	!	!	!	!	!	!	!	!	!LO:TX:t=P:problem=mixed beam	!	!	!	!	!	!	!
4AA-/	.	2A-/	.	2A-/	.	8cc\L	.	4cc\	.	2AA-/	-ca-	.	2c\	-ca-	(8a-\L	pec-	8cc\L	-ca-	.	8aa-\L	.	2.ccc\	.	8a-/L	.	8cc\L	.	2aa-\	.	2aa-\	.
.	.	.	.	.	.	8b-\J	.	.	.	.	.	.	.	.	8g\J)	.	8b-\J	.	.	8gg\J	.	.	.	8gg\J	.	8bb-\J	.	.	.	.	.
!	!	!	!	!	!	!	!	!	!	!	!	!	!	!	!	!	!	!	!	!	!	!	!	!LO:SIC:s:o=:v: 4 center	!	!	!	!	!	!	!
4A-\	.	.	.	.	.	4a-/	.	4ff\	.	.	.	.	.	.	4f\	-ca-	4a-\	.	.	4ff\	.	.	.	4ff\	.	4aa-\	.	.	.	.	.
4An\	.	4An/	.	4An/	.	4g/	.	4ee-\	.	4AAn/	-ta	.	4c\	-ta	4e-\	-ta	4g\	-ta	.	4ee-\	.	.	.	4ee-\	.	4gg\	.	4aan\	.	4aan\	.
!	!	!	!	!	!	!	!	!	!	!	!	!	!	!	!	!	!	!	!	!	!	!	!	!LO:LB:g=original	!	!LO:LB:g=original	!	!	!	!	!
=9	=9	=9	=9	=9	=9	=9	=9	=9	=9	=9	=9	=9	=9	=9	=9	=9	=9	=9	=9	=9	=9	=9	=9	=9	=9	=9	=9	=9	=9	=9	=9
4B-\	.	4B-/	.	4B-/	.	4g/	.	4ee-T\	.	4BB-/	mun-	.	4B-\	mun-	4e-\	mun-	4g/	mun-	.	4b-/	.	8bb-\	.	4ee-\	.	4gg\	.	4bb-\	.	4bb-\	.
.	.	.	.	.	.	.	.	.	.	.	.	.	.	.	.	.	.	.	.	.	.	4r	.	.	.	.	.	.	.	.	.
!LO:TX:i:a:t=1.	!	!	!	!	!	!LO:TX:t=P:problem=mixed beam	!	!	!	!	!	!	!	!	!	!	!	!	!	!	!	!	!	!	!	!	!	!	!	!	!
4BB-/	.	4B-/	.	4B-/	.	8f/L	.	8dd\L	.	4BB-/	-di	.	4B-\	-di	4d\	-di	4f/	-di	.	8r	.	.	.	4dd\	.	4ff\	.	4bb-\	.	4bb-\	.
.	.	.	.	.	.	16ff\L	.	(16bb-\L	.	.	.	.	.	.	.	.	.	.	.	8b-/L	.	8b-/L	.	.	.	.	.	.	.	.	.
.	.	.	.	.	.	16dd\JJ	.	16ff\JJ)	.	.	.	.	.	.	.	.	.	.	.	.	.	.	.	.	.	.	.	.	.	.	.
4BB-/	.	4B-/	.	4B-/	.	8dd\L	.	8ff\L	.	4r	.	.	4r	.	4r	.	4r	.	.	8b-/	.	8b-/	.	4r	.	4r	.	4bb-\	.	4bb-\	.
.	.	.	.	.	.	16dd\L	.	(16ff\L	.	.	.	.	.	.	.	.	.	.	.	8b-/J	.	8b-/J	.	.	.	.	.	.	.	.	.
.	.	.	.	.	.	16b-\JJ	.	16dd\JJ)	.	.	.	.	.	.	.	.	.	.	.	.	.	.	.	.	.	.	.	.	.	.	.
!	!	!	!	!	!	!LO:LB:g=original	!	!LO:LB:g=original	!	!	!	!	!	!	!	!	!	!	!	!LO:LB:g=original	!	!LO:LB:g=original	!	!	!	!	!	!	!	!	!
=10	=10	=10	=10	=10	=10	=10	=10	=10	=10	=10	=10	=10	=10	=10	=10	=10	=10	=10	=10	=10	=10	=10	=10	=10	=10	=10	=10	=10	=10	=10	=10
!	!	!	!	!	!	!	!	!	!	!	!	!LO:DY:a:t=po&colon;	!	!	!	!	!	!	!	!	!	!	!	!	!	!LO:TX:i:a:t=1.	!	!	!	!	!
4BB-/	p	4B-/	.	4B-/	.	8b-/L	.	8b-/L	.	2BB-/	Do-	p	2B-\	do-	2.r	.	2.r	.	.	2b-/	.	2b-/	.	2.r	.	2.r	.	4bb-\	.	4bb-\	.
.	.	.	.	.	.	16f/L	.	(16f/L	.	.	.	.	.	.	.	.	.	.	.	.	.	.	.	.	.	.	.	.	.	.	.
.	.	.	.	.	.	16d/JJ	.	16d/JJ)	.	.	.	.	.	.	.	.	.	.	.	.	.	.	.	.	.	.	.	.	.	.	.
!LO:TX:i:a:t=2.	!	!	!	!	!	!	!	!	!	!	!	!	!	!	!	!	!	!	!	!	!	!	!	!	!	!	!	!	!	!	!
4BB-/	.	4r	.	4r	.	4B-/	.	4B-/	.	.	.	.	.	.	.	.	.	.	.	.	.	.	.	.	.	.	.	4r	.	4r	.
4BB-/	.	4r	.	4r	.	4r	.	4r	.	4BB-/	-na	.	4B-\	-na	.	.	.	.	.	4r	.	4r	.	.	.	.	.	4r	.	4r	.
=11	=11	=11	=11	=11	=11	=11	=11	=11	=11	=11	=11	=11	=11	=11	=11	=11	=11	=11	=11	=11	=11	=11	=11	=11	=11	=11	=11	=11	=11	=11	=11
!	!	!	!	!	!	!	!	!LO:SIC:o=:v:oznaczenia dynamiczne czerwonym tuszem&colon;global	!	!	!	!	!	!	!	!	!	!	!	!	!	!	!	!	!	!	!	!	!	!	!
!	!	!	!	!	!	!	!	!	!LO:DY:t=po&colon;	!	!	!	!	!	!	!	!	!	!	!	!	!	!	!	!	!	!	!	!	!	!
4BB-/	.	4r	p	4r	p	8.dd\L	.	8.ff\L	p	2BB-/	e-	.	2B-\	e-	4r	.	4r	.	.	4r	.	4r	.	4r	.	4r	.	4r	p	4r	p
.	.	.	.	.	.	32ee-\LL	.	32gg\LL	.	.	.	.	.	.	.	.	.	.	.	.	.	.	.	.	.	.	.	.	.	.	.
.	.	.	.	.	.	32ff\JJJ	p	32aa-\JJJ	.	.	.	.	.	.	.	.	.	.	.	.	.	.	.	.	.	.	.	.	.	.	.
!LO:TX:i:a:t=3.	!	!	!	!	!	!	!	!	!	!	!	!	!	!	!	!	!	!	!	!	!	!	!	!	!	!	!	!	!	!	!
4BB-/	.	4g\	.	4b-\	.	8ee-\L	.	4gg\	.	.	.	.	.	.	4g\	Do-	4b-\	Do-	.	8b-/L	.	8b-/L	.	4gg\	.	4bb-\	.	4gg\	.	4bb-\	.
.	.	.	.	.	.	8b-\J	.	.	.	.	.	.	.	.	.	.	.	.	.	8b-/	.	8b-/	.	.	.	.	.	.	.	.	.
4BB-/	.	4f\	.	4a-\	.	4a-/	.	4ff\	.	4BB-/	-is	.	4B-\	-is	4f\	-na	4a-\	-na	.	8b-/	.	8b-/	.	4ff\	.	4aa-\	.	4ff\	.	4aa-\	.
.	.	.	.	.	.	.	.	.	.	.	.	.	.	.	.	.	.	.	.	8b-/J	.	8b-/J	.	.	.	.	.	.	.	.	.
=12	=12	=12	=12	=12	=12	=12	=12	=12	=12	=12	=12	=12	=12	=12	=12	=12	=12	=12	=12	=12	=12	=12	=12	=12	=12	=12	=12	=12	=12	=12	=12
!	!	!	!	!	!	!LO:TX:b:t=dol&colon;	!	!	!	!	!	!	!	!	!	!	!	!	!	!	!	!	!	!	!	!	!	!	!	!	!
.	.	.	.	.	.	.	.	8qff/	.	.	.	.	.	.	.	.	.	.	.	.	.	.	.	.	.	.	.	.	.	.	.
4BB-/	.	4e-\	.	4g\	.	4g/	.	4ee-\	.	2BB-/	Re-	.	2B-\	Re-	4e-\	e-	4g\	e-	.	2b-/	.	2b-/	.	4ee-\	.	4gg\	.	4ee-\	.	4gg\	.
!LO:TX:i:a:t=4.	!	!	!	!	!	!LO:TX:t=P:problem=mixed beam	!	!	!	!	!	!	!	!	!	!	!	!	!	!	!	!	!	!	!	!	!	!	!	!	!
4BB-/	.	4d\	.	4f\	.	8f/L	.	8dd\L	.	.	.	.	.	.	4d\	-is	4f\	-is	.	.	.	.	.	4dd\	.	4ff\	.	4dd\	.	4ff\	.
!	!	!	!	!	!	!	!	!LO:TX:b:t=dol&colon;	!	!	!	!	!	!	!	!	!	!	!	!	!	!	!	!	!	!	!	!	!	!	!
.	.	.	.	.	.	16ff\L	.	(16bb-\L	.	.	.	.	.	.	.	.	.	.	.	.	.	.	.	.	.	.	.	.	.	.	.
.	.	.	.	.	.	16dd\JJ	.	16ff\JJ)	.	.	.	.	.	.	.	.	.	.	.	.	.	.	.	.	.	.	.	.	.	.	.
4BB-/	.	4r	.	4r	.	8dd\L	.	8ff\L	.	4BB-/	-qui-	.	4B-\	-qui-	4r	.	4r	.	.	4r	.	4r	.	4r	.	4r	.	4r	.	4r	.
.	.	.	.	.	.	16dd\L	.	(16ff\L	.	.	.	.	.	.	.	.	.	.	.	.	.	.	.	.	.	.	.	.	.	.	.
.	.	.	.	.	.	16b-\JJ	.	16dd\JJ)	.	.	.	.	.	.	.	.	.	.	.	.	.	.	.	.	.	.	.	.	.	.	.
!	!	!	!	!	!	!	!	!	!	!	!	!	!LO:LB:g=original	!	!	!	!	!	!	!	!	!	!	!	!	!	!	!	!	!	!
!	!	!LO:LB:g=original	!	!LO:LB:g=original	!	!	!	!	!	!LO:LB:g=original	!	!	!	!	!	!	!	!	!	!	!	!	!	!	!	!	!	!	!	!	!
=13	=13	=13	=13	=13	=13	=13	=13	=13	=13	=13	=13	=13	=13	=13	=13	=13	=13	=13	=13	=13	=13	=13	=13	=13	=13	=13	=13	=13	=13	=13	=13
*	*	*	*	*	*	*	*	*2\right	*	*	*	*	*	*	*	*	*	*	*	*	*	*	*	*2\right	*	*	*	*	*	*	*
4BB-/	.	2g-X\	.	2b-\	.	4b-/	.	2b-\	p	2.BB-/	-em	.	2.B-\	-em	4.g-X\	Re-	4.b-\	Re-	p	2b-/	.	2b-/	.	2gg-X\	.	2bb-\	.	2gg-X\	.	2bb-\	.
!LO:TX:i:a:t=5.	!	!	!	!	!	!	!	!	!	!	!	!	!	!	!	!	!	!	!	!	!	!	!	!	!	!	!	!	!	!	!
4BB-/	.	.	.	.	.	4g-X/	p	.	.	.	.	.	.	.	.	.	.	.	.	.	.	.	.	.	.	.	.	.	.	.	.
.	.	.	.	.	.	.	.	.	.	.	.	.	.	.	8g-\	-qui-	8b-\	-qui-	.	.	.	.	.	.	.	.	.	.	.	.	.
4BB-/	.	4f\	.	4a-\	.	4f/	.	4a-/	.	.	.	.	.	.	4f\	-em	4a-\	-em	.	4r	.	4r	.	4ff\	.	4aa-\	.	4ff\	.	4aa-\	.
!	!	!	!	!	!	!	!	!	!	!	!	!	!	!	!LO:LB:g=original	!	!LO:LB:g=original	!	!	!	!	!	!	!	!	!	!	!	!	!	!
=14	=14	=14	=14	=14	=14	=14	=14	=14	=14	=14	=14	=14	=14	=14	=14	=14	=14	=14	=14	=14	=14	=14	=14	=14	=14	=14	=14	=14	=14	=14	=14
4BB-/	.	4e-\	.	4g-X\	.	4e-/	.	4g-X/	.	2BB-/	Sem-	.	2B-\	Sem-	(4e-\	Sem-	(4g-X/	Sam-	.	4r	.	4r	.	4ee-\	.	(4gg-X\	.	4ee-\	.	4gg-X\	.
!LO:TX:i:a:t=6.	!	!	!	!	!	!	!	!	!	!	!	!	!	!	!	!	!	!	!	!	!	!	!	!	!	!	!	!	!	!	!
4BB-/	.	4d\	.	4f\	.	(4d/	.	4f/	.	.	.	.	.	.	4d\	.	4f/)	.	.	8b-/L	.	8b-/L	.	4dd\	.	4ff\	.	4dd\	.	4ff\	.
.	.	.	.	.	.	.	.	.	.	.	.	.	.	.	.	.	.	.	.	8b-/	.	8b-/	.	.	.	.	.	.	.	.	.
4BB-/	.	4c\	.	4e-\	.	4c/)	.	4e-/	.	4BB-/	-pi-	.	4B-\	-pi-	4c\)	-pi-	4e-/	-pi-	.	8b-/	.	8b-/	.	4cc\	.	4ee-\)	.	4cc\	.	4ee-\	.
.	.	.	.	.	.	.	.	.	.	.	.	.	.	.	.	.	.	.	.	8b-/J	.	8b-/J	.	.	.	.	.	.	.	.	.
!	!	!	!	!	!	!LO:LB:g=original	!	!	!	!	!	!	!	!	!	!	!	!	!	!	!	!	!	!	!	!	!	!LO:LB:g=original	!	!	!
=15	=15	=15	=15	=15	=15	=15	=15	=15	=15	=15	=15	=15	=15	=15	=15	=15	=15	=15	=15	=15	=15	=15	=15	=15	=15	=15	=15	=15	=15	=15	=15
.	.	.	.	.	.	8qc/	.	8qe-/	.	.	.	.	.	.	.	.	.	.	.	.	.	.	.	.	.	.	.	.	.	.	.
4BB-/	.	4B-/	.	4b-\	.	[2.d/	.	2.f/	.	2.BB-/	-ter-	.	2.B-\	-ter-	2.d\	-ter-	2.f/	-ter-	.	2b-/	.	2b-/	.	[2.dd\	.	[2.ff\	.	4b-\	.	4bb-\	.
!LO:TX:i:a:t=7.	!	!	!	!	!	!	!	!	!	!	!	!	!	!	!	!	!	!	!	!	!	!	!	!	!	!	!	!	!	!	!
4BB-/	.	4B-/	.	4B-/	.	.	.	.	.	.	.	.	.	.	.	.	.	.	.	.	.	.	.	.	.	.	.	2b-\	.	2bb-\	.
4BB-/	.	4B-/	.	4B-/	.	.	.	.	.	.	.	.	.	.	.	.	.	.	.	4r	.	4r	.	.	.	.	.	.	.	.	.
!	!	!	!	!	!	!	!	!LO:LB:g=original	!	!	!	!	!	!	!	!	!	!	!	!	!	!	!	!	!	!	!	!	!	!	!
=16	=16	=16	=16	=16	=16	=16	=16	=16	=16	=16	=16	=16	=16	=16	=16	=16	=16	=16	=16	=16	=16	=16	=16	=16	=16	=16	=16	=16	=16	=16	=16
4BB-/	.	4B-/	.	4B-/	.	8d/]	.	8f/	.	2.BB-/	-nam	.	2.B-\	-nam	2.d\	-nam	2.f/	-nam	.	4r	.	4r	.	2.dd\]	.	2.ff\]	.	4b-\	.	2.bb-\	.
.	.	.	.	.	.	4f/	.	4b-\	.	.	.	.	.	.	.	.	.	.	.	.	.	.	.	.	.	.	.	.	.	.	.
!LO:TX:i:a:t=8.	!	!	!	!	!	!	!	!	!	!	!	!	!	!	!	!	!	!	!	!	!	!	!	!	!	!	!	!	!	!	!
4BB-/	.	4B-/	.	4B-/	.	.	.	.	.	.	.	.	.	.	.	.	.	.	.	8b-/L	.	8b-/L	.	.	.	.	.	4b-\	.	.	.
.	.	.	.	.	.	4b-\	.	4dd\	.	.	.	.	.	.	.	.	.	.	.	8b-/	.	8b-/	.	.	.	.	.	.	.	.	.
4BB-/	.	4B-/	.	4B-/	.	.	.	.	.	.	.	.	.	.	.	.	.	.	.	8b-/	.	8b-/	.	.	.	.	.	4b-\	.	.	.
.	.	.	.	.	.	[8dd\	.	[8ff\	.	.	.	.	.	.	.	.	.	.	.	8b-/J	.	8b-/J	.	.	.	.	.	.	.	.	.
!	!	!	!	!	!	!	!	!	!	!	!	!	!	!	!	!	!	!	!	!	!	!	!	!	!	!	!	!	!	!LO:LB:g=original	!
=17	=17	=17	=17	=17	=17	=17	=17	=17	=17	=17	=17	=17	=17	=17	=17	=17	=17	=17	=17	=17	=17	=17	=17	=17	=17	=17	=17	=17	=17	=17	=17
!	!	!	!	!	!	!LO:TX:b:t=dol&colon;	!	!	!	!LO:TX:i:a:t=3	!	!	!LO:TX:i:a:t=3.	!	!LO:TX:i:a:t=3	!	!	!	!	!	!	!	!	!	!	!	!	!	!	!	!
!	!	!	!	!	!	!	!	!	!	!LO:N:vis=0	!	!	!LO:N:vis=0	!	!LO:N:vis=0	!	!LO:N:vis=0	!	!	!	!	!	!	!	!	!	!	!	!	!	!
4BB-/	.	4B-/	.	4B-/	.	8dd\]	.	8ff\]	.	1.r	.	.	1.r	.	1.r	.	1.r	.	.	2b-/	.	2b-/	.	8dd\	.	8ff\	.	4b-\	.	4bb-\	.
!	!	!	!	!	!	!	!	!LO:TX:b:t=dolce	!	!	!	!	!	!	!	!	!	!	!	!	!	!	!	!	!	!	!	!	!	!	!
.	.	.	.	.	.	4dd\	.	4bb-\	.	.	.	.	.	.	.	.	.	.	.	.	.	.	.	4dd\	.	4bb-\	.	.	.	.	.
!LO:TX:i:a:t=9.	!	!	!	!	!	!	!	!	!	!	!	!	!	!	!	!	!	!	!	!	!	!	!	!	!	!	!	!	!	!	!
4BB-/	.	4b-\	.	4b-\	.	.	.	.	.	.	.	.	.	.	.	.	.	.	.	.	.	.	.	.	.	.	.	4bb-\	.	4bb-\	.
.	.	.	.	.	.	4ff\	.	4aa-\	.	.	.	.	.	.	.	.	.	.	.	.	.	.	.	4ff\	.	4aa-\	.	.	.	.	.
4BB-/	.	4b-\	.	4b-\	.	.	.	.	.	.	.	.	.	.	.	.	.	.	.	4r	.	4r	.	.	.	.	.	4b-\	.	4bb-\	.
.	.	.	.	.	.	8ee-\	.	8gg\	.	.	.	.	.	.	.	.	.	.	.	.	.	.	.	8ee-\	.	8gg\	.	.	.	.	.
=18	=18	=18	=18	=18	=18	=18	=18	=18	=18	=18	=18	=18	=18	=18	=18	=18	=18	=18	=18	=18	=18	=18	=18	=18	=18	=18	=18	=18	=18	=18	=18
4BB-/	.	4b-\	.	4b-\	.	4ee-\	.	4gg\	.	.	.	.	.	.	.	.	.	.	.	4r	.	4r	.	4ee-\	.	4gg\	.	4bb-\	.	4bb-\	.
!LO:TX:i:a:t=10.	!	!	!	!	!	!	!	!	!	!	!	!	!	!	!	!	!	!	!	!	!	!	!	!	!	!	!	!	!	!	!
4BB-/	.	4b-\	.	4b-\	.	4dd\	.	4ff\	.	.	.	.	.	.	.	.	.	.	.	8b-/L	.	8b-/L	.	4dd\	.	4ff\	.	4bb-\	.	2bb-\	.
.	.	.	.	.	.	.	.	.	.	.	.	.	.	.	.	.	.	.	.	8b-/	.	8b-/	.	.	.	.	.	.	.	.	.
4BB-/	.	4b-\	.	4b-\	.	4cc\	.	4ee-\	.	.	.	.	.	.	.	.	.	.	.	8b-/	.	8b-/	.	4cc\	.	4ee-\	.	4bb-\	.	.	.
.	.	.	.	.	.	.	.	.	.	.	.	.	.	.	.	.	.	.	.	8b-/J	.	8b-/J	.	.	.	.	.	.	.	.	.
!LO:LB:g=original	!	!	!	!	!	!	!	!	!	!	!	!	!	!	!	!	!	!	!	!LO:LB:g=original	!	!LO:LB:g=original	!	!LO:LB:g=original	!	!LO:LB:g=original	!	!	!	!	!
=19	=19	=19	=19	=19	=19	=19	=19	=19	=19	=19	=19	=19	=19	=19	=19	=19	=19	=19	=19	=19	=19	=19	=19	=19	=19	=19	=19	=19	=19	=19	=19
*	*	*	*	*	*	*2\right	*	*	*	*	*	*	*	*	*	*	*	*	*	*	*	*	*	*	*	*	*	*	*	*	*
.	.	.	.	.	.	8qcc/	.	8qee-/	.	.	.	.	.	.	.	.	.	.	.	.	.	.	.	8qqcc/	.	8qee-/	.	.	.	.	.
!	!	!	!	!	!	!	!	!	!	!LO:N:vis=1	!	!	!LO:N:vis=1	!	!LO:N:vis=1	!	!LO:N:vis=1	!	!	!	!	!	!	!	!	!	!	!	!	!	!
2.BB-/	.	2.b-\	.	2.b-\	.	2.b-;\	.	2.dd;\	.	2.r	.	.	2.r	.	2.r;	.	2.r;	.	.	2b-;/	.	2b-;/	.	2.b-;\	.	2dd;\	.	2.bb-\	.	2.bb-\	.
.	.	.	.	.	.	.	.	.	.	.	.	.	.	.	.	.	.	.	.	4r	.	4r	.	.	.	4r	.	.	.	.	.
=20||	=20||	=20||	=20||	=20||	=20||	=20||	=20||	=20||	=20||	=20||	=20||	=20||	=20||	=20||	=20||	=20||	=20||	=20||	=20||	=20||	=20||	=20||	=20||	=20||	=20||	=20||	=20||	=20||	=20||	=20||	=20||
*	*	*	*	*	*	*	*	*	*	*	*	*	*	*	*	*	*	*	*	*	*	*	*	*	*	*	*	*tremolo	*	*tremolo	*
!	!	!	!	!	!	!	!LO:DY:rj	!	!	!	!	!	!	!	!	!	!	!	!	!	!	!	!	!LO:TX:i:a:t=2	!	!	!	!	!	!	!
!	!	!	!	!	!	!	!	!	!	!	!	!	!	!	!	!	!	!	!	!	!	!	!	!LO:N:vis=0	!	!	!	!	!	!	!
8E-\L	p	8e-\L	p	8e-\L	p	2.e-/	p	2.e-/	p	2E-\	Lux	.	2G/	Lux	2e-\	Lux	2e-/	Lux	.	4e-/	.	4e-/	.	1.r	.	2.ee-\	p	8ee-\L	p	8eee-\L	p
8E-\	.	8e-\	.	8e-\	.	.	.	.	.	.	.	.	.	.	.	.	.	.	.	.	.	.	.	.	.	.	.	8ee-\	.	8eee-\	.
8E-\	.	8e-\	.	8e-\	.	.	.	.	.	.	.	.	.	.	.	.	.	.	.	4e-/	.	4e-/	.	.	.	.	.	8ee-\	.	8eee-\	.
8E-\	.	8e-\	.	8e-\	.	.	.	.	.	.	.	.	.	.	.	.	.	.	.	.	.	.	.	.	.	.	.	8ee-\	.	8eee-\	.
8E-\	.	8e-\	.	8e-\	.	.	.	.	.	4E-\	a-	.	4G/	a-	4e-\	a-	4e-/	a-	.	4e-/	.	4e-/	.	.	.	.	.	8ee-\	.	8eee-\	.
8E-\J	.	8e-\J	.	8e-\J	.	.	.	.	.	.	.	.	.	.	.	.	.	.	.	.	.	.	.	.	.	.	.	8ee-\J	.	8eee-\J	.
*	*	*	*	*	*	*	*	*	*	*	*	*	*	*	*	*	*	*	*	*	*	*	*	*	*	*	*	*Xtremolo	*	*Xtremolo	*
!	!	!LO:LB:g=original	!	!LO:LB:g=original	!	!	!	!	!	!	!	!	!	!	!	!	!	!	!	!	!	!	!	!	!	!	!	!	!	!	!
=21	=21	=21	=21	=21	=21	=21	=21	=21	=21	=21	=21	=21	=21	=21	=21	=21	=21	=21	=21	=21	=21	=21	=21	=21	=21	=21	=21	=21	=21	=21	=21
!	!	!	!	!	!	!	!	!	!LO:DY:t=fr&colon;	!	!	!	!	!	!	!	!	!	!	!	!	!	!	!	!	!	!	!	!	!	!
8E-\L	f	8e-\L	.	8e-\L	.	2.d/	f	2.a-/	f	2E-\	-ter-	.	2F/	-ter-	2d\	-ter-	2a-\	-te-	.	2.e-/	.	2.e-/	.	.	.	2.aa-\	f	2.ee-\	f	2.eee-\	.
8E-\	.	8e-\	.	8e-\	f	.	.	.	.	.	.	.	.	.	.	.	.	.	.	.	.	.	.	.	.	.	.	.	.	.	.
8E-\	.	8e-\	f	8e-\	.	.	.	.	.	.	.	.	.	.	.	.	.	.	.	.	.	.	.	.	.	.	.	.	.	.	.
8E-\	.	8e-\	.	8e-\	.	.	.	.	.	.	.	.	.	.	.	.	.	.	.	.	.	.	.	.	.	.	.	.	.	.	.
8E-\	.	8e-\	.	8e-\	.	.	.	.	.	4E-\	-na	.	4F/	-na	4d\	-na	4a-\	-rna	.	.	.	.	.	.	.	.	.	.	.	.	.
8E-\J	.	8e-\J	.	8e-\J	.	.	.	.	.	.	.	.	.	.	.	.	.	.	.	.	.	.	.	.	.	.	.	.	.	.	.
!	!	!	!	!	!	!LO:LB:g=original	!	!	!	!	!	!	!	!	!	!	!	!	!	!	!	!	!	!	!	!	!	!	!	!	!
=22	=22	=22	=22	=22	=22	=22	=22	=22	=22	=22	=22	=22	=22	=22	=22	=22	=22	=22	=22	=22	=22	=22	=22	=22	=22	=22	=22	=22	=22	=22	=22
8E-\L	.	8e-\L	.	8e-\L	.	2.e-/	p	2.g/	p	4.E-\	Lu-	.	4G/	Lu-	4.e-\	Lu-	4.g/	Lu-	.	4e-/	.	4e-/	.	2.ee-\	p	2.gg\	p	2.ee-\	p	2.eee-\	.
8E-\	p	8e-\	p	8e-\	p	.	.	.	.	.	.	.	.	.	.	.	.	.	.	.	.	.	.	.	.	.	.	.	.	.	.
8E-\	.	8e-\	.	8e-\	.	.	.	.	.	.	.	.	4B-\	-ce-	.	.	.	.	.	4e-/	.	4e-/	.	.	.	.	.	.	.	.	.
8E-\	.	8e-\	.	8e-\	.	.	.	.	.	8E-\	-ce-	.	.	.	8e-\	-ce	8f/	-ce	.	.	.	.	.	.	.	.	.	.	.	.	.
8E-\	.	8e-\	.	8e-\	.	.	.	.	.	4E-\	-at	.	4B-\	-at	4e-\	at	4e-/	at	.	4e-/	.	4e-/	.	.	.	.	.	.	.	.	.
8E-\J	.	8e-\J	.	8e-\J	.	.	.	.	.	.	.	.	.	.	.	.	.	.	.	.	.	.	.	.	.	.	.	.	.	.	.
!	!	!	!	!	!	!	!	!	!	!LO:LB:g=original	!	!	!	!	!	!	!	!	!	!	!	!	!	!	!	!	!	!	!	!	!
=23	=23	=23	=23	=23	=23	=23	=23	=23	=23	=23	=23	=23	=23	=23	=23	=23	=23	=23	=23	=23	=23	=23	=23	=23	=23	=23	=23	=23	=23	=23	=23
8E-\L	.	8e-\L	.	8e-\L	.	2.a-/	f	2.cc\	f	2.E-\	e-	.	2.A-/	e-	2.e-\	e-	2.cc\	e-	.	4e-/	.	4e-/	.	2.a-\	f	2.cc\	f	2.ee-\	f	2.eee-\	.
8E-\	f	8e-\	f	8e-\	f	.	.	.	.	.	.	.	.	.	.	.	.	.	.	.	.	.	.	.	.	.	.	.	.	.	.
8E-\	.	8e-\	.	8e-\	.	.	.	.	.	.	.	.	.	.	.	.	.	.	.	4e-/	.	4e-/	.	.	.	.	.	.	.	.	.
8E-\	.	8e-\	.	8e-\	.	.	.	.	.	.	.	.	.	.	.	.	.	.	.	.	.	.	.	.	.	.	.	.	.	.	.
8E-\	.	8e-\	.	8e-\	.	.	.	.	.	.	.	.	.	.	.	.	.	.	.	4e-/	.	4e-/	.	.	.	.	.	.	.	.	.
8E-\J	.	8e-\J	.	8e-\J	.	.	.	.	.	.	.	.	.	.	.	.	.	.	.	.	.	.	.	.	.	.	.	.	.	.	.
!	!	!	!	!	!	!	!	!LO:LB:g=original	!	!	!	!	!LO:LB:g=original	!	!	!	!	!	!	!	!	!	!	!	!	!	!	!LO:LB:g=original	!	!	!
=24	=24	=24	=24	=24	=24	=24	=24	=24	=24	=24	=24	=24	=24	=24	=24	=24	=24	=24	=24	=24	=24	=24	=24	=24	=24	=24	=24	=24	=24	=24	=24
!!pagebreak:original
4E-\	.	4e-\	.	4e-\	.	4g/	.	4b-\	.	4E-\	-is	.	4G/	-is	4e-\	-is	4b-\	-is	.	4e-/	.	4e-/	.	4g/	.	4b-\	.	4ee-\	.	4eee-\	.
4E-\	p	4r	.	4r	.	4cc\	p	4ee-\	.	4r	.	.	4r	.	4r	.	4r	.	.	4r	.	4r	.	4cc\	p	(4ee-\	p	4r	.	4r	.
4E-\	.	4r	.	4r	.	4b-\	.	4dd\	p	4r	.	.	4r	.	4r	.	4r	.	.	4r	.	4r	.	4b-\	.	4dd\)	.	4r	.	4r	.
!	!	!	!	!	!	!	!	!	!	!	!	!	!	!	!	!	!LO:LB:g=original	!	!	!	!	!	!	!	!	!	!	!	!	!	!
!	!	!	!	!	!	!	!	!	!	!	!	!	!	!	!LO:LB:g=original	!	!	!	!	!	!	!	!	!	!	!	!	!	!	!	!
=25	=25	=25	=25	=25	=25	=25	=25	=25	=25	=25	=25	=25	=25	=25	=25	=25	=25	=25	=25	=25	=25	=25	=25	=25	=25	=25	=25	=25	=25	=25	=25
!	!	!	!	!	!	!	!	!	!	!LO:TX:i:a:t=1.	!	!	!LO:TX:i:a:t=1.	!	!	!	!	!	!	!	!	!	!	!	!	!	!	!	!	!	!
4E-\	.	2.r	.	2.r	.	4.a-/	.	4.cc\	.	2.r	.	.	2.r	.	4.a-\	Lu-	4.cc\	Lu-	.	2.r	.	2.r	.	4.a-/	.	4.cc\	.	2.r	.	2.r	.
4E-\	.	.	.	.	.	.	.	.	.	.	.	.	.	.	.	.	.	.	.	.	.	.	.	.	.	.	.	.	.	.	.
.	.	.	.	.	.	8g/	.	8b-\	.	.	.	.	.	.	8g\	-ce	8b-\	-ce	.	.	.	.	.	8g/	.	8b-\	.	.	.	.	.
4E-\	.	.	.	.	.	4f/	.	4a-\	.	.	.	.	.	.	4f\	at	4a-\	at	.	.	.	.	.	4f/	.	4a-\	.	.	.	.	.
=26	=26	=26	=26	=26	=26	=26	=26	=26	=26	=26	=26	=26	=26	=26	=26	=26	=26	=26	=26	=26	=26	=26	=26	=26	=26	=26	=26	=26	=26	=26	=26
4E-\	.	2e-\	p	2e-\	.	4e-/	.	4g/	.	2E-\	e-	.	2B-\	e-	2e-\	e-	2g\	e-	.	4e-/	.	4e-/	.	2e-/	.	2g/	.	2ee-\	p	2eee-\	.
4E-\	.	.	.	.	.	4e-/	.	4g/	.	.	.	.	.	.	.	.	.	.	.	4e-/	.	4e-/	.	.	.	.	.	.	.	.	.
4D\	.	4d\	.	4d\	.	4f/	.	4a-/	.	4D\	-is	.	4B-\	-is	4f\	-is	4a-\	-is	.	4b-/	.	4b-/	.	4f/	.	4a-/	.	4dd\	.	4ddd\	.
!LO:LB:g=original	!	!	!	!	!	!	!	!	!	!	!	!	!	!	!	!	!	!	!	!	!	!	!	!	!	!	!	!	!	!	!
=27	=27	=27	=27	=27	=27	=27	=27	=27	=27	=27	=27	=27	=27	=27	=27	=27	=27	=27	=27	=27	=27	=27	=27	=27	=27	=27	=27	=27	=27	=27	=27
4E-\	.	4e-\	.	4e-\	.	4.e-/	.	4.g/	.	2E-\	Do-	.	2B-\	Do-	4.e-\	Do-	4.g/	Do-	.	4ee-\	.	4ee-\	.	4.ee-\	.	4.gg\	.	4ee-\	.	4eee-\	.
4BB-/	.	4B-/	.	4B-/	.	.	.	.	.	.	.	.	.	.	.	.	.	.	.	4b-/	.	4b-/	.	.	.	.	.	4bb-\	.	4bb-\	.
.	.	.	.	.	.	8d/	.	8g/	.	.	.	.	.	.	8e-\	-mi-	8f/	-mi-	.	.	.	.	.	8dd\	.	8ff\	.	.	.	.	.
4r	.	4r	.	4r	.	4d/	.	4f/	.	4BB-/	-mi-	.	4B-\	-mi-	4d\	-ne	4f/	-ne	.	4B-/	.	4B-/	.	4dd\	.	4ee-\	.	4r	.	4r	.
!	!	!LO:LB:g=original	!	!LO:LB:g=original	!	!	!	!	!	!	!	!	!	!	!	!	!	!	!	!LO:LB:g=original	!	!	!	!	!	!	!	!	!	!LO:LB:g=original	!
=28	=28	=28	=28	=28	=28	=28	=28	=28	=28	=28	=28	=28	=28	=28	=28	=28	=28	=28	=28	=28	=28	=28	=28	=28	=28	=28	=28	=28	=28	=28	=28
4BB-/	.	4g\	.	4b-\	.	4g/	.	4b-/	.	2BB-/	-ne	.	2B-\	-ne	2.r	.	2.r	.	.	4B-/	.	4B-/	.	(4gg\	.	(4bb-\	.	4gg\	.	4bb-\	.
4BB-/	.	4f\	.	4a-\	.	(4f/	.	(4a-/	.	.	.	.	.	.	.	.	.	.	.	4B-/	.	4B-/	.	4ff\	.	4aa-\	.	4ff\	.	4aa-\	.
4BB-/	.	4e-\	.	4g\	.	4e-/)	.	4g/)	.	4r	.	.	4r	.	.	.	.	.	.	4B-/	.	4B-/	.	4ee-\)	.	4gg\)	.	4ee-\	.	4gg\	.
!	!	!	!	!	!	!LO:LB:g=original	!	!	!	!	!	!	!	!	!	!	!	!	!	!	!	!LO:LB:g=original	!	!	!	!LO:LB:g=original	!	!	!	!	!
=29	=29	=29	=29	=29	=29	=29	=29	=29	=29	=29	=29	=29	=29	=29	=29	=29	=29	=29	=29	=29	=29	=29	=29	=29	=29	=29	=29	=29	=29	=29	=29
!	!	!	!	!	!	!	!	!	!	!LO:TX:i:a:t=4	!	!	!LO:TX:i:a:t=4	!	!LO:TX:i:a:t=Solo	!	!	!	!	!	!	!	!	!	!	!	!	!	!	!	!
!	!	!	!	!	!	!	!	!	!	!LO:N:vis=00	!	!	!LO:N:vis=00	!	!	!	!	!	!	!	!	!	!	!	!	!	!	!	!	!	!
4BB-/	.	4d\	.	4f\	.	4d/	.	(4f/	.	0.r	.	.	0.r	.	4d\	Cum	4f/	Cum	.	4B-/	.	4B-/	.	(4dd\	.	(4ff\	.	4dd\	.	4ff\	.
4BB-/	.	4e-\	.	4g\	.	(4e-/	.	4g/	.	.	.	.	.	.	4e-\	Sanc-	4g\	Sanc-	.	4r	.	4r	.	4ee-\	.	4gg\	.	4ee-\	.	4gg\	.
!	!	!	!	!	!	!	!	!	!	!	!	!	!	!	!	!	!	!	!	!	!	!	!	!	!	!LO:SIC:o:s=:v:4\right	!	!	!	!	!
4BB-/	.	4f\	.	4a-\	.	4f/)	.	4a-/)	.	.	.	.	.	.	4f\	-tis	4a-\	-tis	.	4r	.	4r	.	4ff\)	.	4aa-\)	.	4ff\	.	4aa-\	.
!	!	!	!	!	!	!	!	!	!	!	!	!	!	!	!	!	!	!	!	!	!	!	!	!LO:LB:g=original	!	!	!	!	!	!	!
=30	=30	=30	=30	=30	=30	=30	=30	=30	=30	=30	=30	=30	=30	=30	=30	=30	=30	=30	=30	=30	=30	=30	=30	=30	=30	=30	=30	=30	=30	=30	=30
!	!	!	!	!	!	!	!	!	!	!	!	!	!	!	!	!	!	!	!	!LO:TX:i:a:t=3	!	!	!	!	!	!	!	!	!	!	!
!	!	!	!	!	!	!	!	!	!	!	!	!	!	!	!	!	!	!	!	!LO:N:vis=0	!	!LO:N:vis=0	!	!	!	!	!	!	!	!	!
4BB-/	.	4f\	.	4a-\	.	4f/	.	4a-/	.	.	.	.	.	.	4f\	tu-	4a-\	tu-	.	1.r	.	1.r	.	4ff\	.	4aa-\	.	4ff\	.	4aa-\	.
4EE-/	.	4e-\	.	4g\	.	4e-/	.	4g/	.	.	.	.	.	.	4e-\	-is	4g\	-is	.	.	.	.	.	4ee-\	.	4gg\	.	4ee-\	.	4gg\	.
4BB-/	.	4r	.	4r	.	8f/L	.	8a-/L	.	.	.	.	.	.	4r	.	4r	.	.	.	.	.	.	4r	.	4r	.	4r	.	4r	.
.	.	.	.	.	.	8d/J	.	8f/J	.	.	.	.	.	.	.	.	.	.	.	.	.	.	.	.	.	.	.	.	.	.	.
!	!	!	!	!	!	!	!	!LO:LB:g=original	!	!	!	!	!	!	!	!	!	!	!	!	!	!	!	!	!	!	!	!	!	!	!
=31	=31	=31	=31	=31	=31	=31	=31	=31	=31	=31	=31	=31	=31	=31	=31	=31	=31	=31	=31	=31	=31	=31	=31	=31	=31	=31	=31	=31	=31	=31	=31
4E-\	.	4e-\	.	4g\	.	4e-/	.	4g/	.	.	.	.	.	.	4e-\	in	4g\	in	.	.	.	.	.	(4ee-\	.	(4gg\	.	4ee-\	.	4gg\	.
4E-\	.	4f\	.	4a-\	.	(4f/	.	(4a-/	.	.	.	.	.	.	(4f\	a-	4a-\	a-	.	.	.	.	.	4ff\	.	4aa-\	.	4ff\	.	4aa-\	.
!	!	!	!	!	!	!	!	!	!	!	!	!	!	!	!	!	!	!	!	!	!	!	!	!	!	!LO:SIC:o:s=:v:4\right	!	!	!	!	!
4E-\	.	4g\	.	4b-\	.	4g/)	.	4b-/)	.	.	.	.	.	.	4g\)	.	4b-\	.	.	.	.	.	.	4gg\)	.	4bb-\)	.	4gg\	.	4bb-\	.
!	!	!	!	!	!	!	!	!	!	!	!	!	!	!	!	!	!LO:LB:g=original	!	!	!	!	!	!	!	!	!	!	!	!	!	!
=32	=32	=32	=32	=32	=32	=32	=32	=32	=32	=32	=32	=32	=32	=32	=32	=32	=32	=32	=32	=32	=32	=32	=32	=32	=32	=32	=32	=32	=32	=32	=32
4E-\	.	4a-\	.	4cc\	.	4a-/	.	4cc\	.	.	.	.	.	.	4a-\	-ter-	4cc\	-ter-	.	2.r	.	2.r	.	4aa-\	.	4ccc\	.	4aa-\	.	4ccc\	.
4E-\	.	4g\	.	4b-\	.	4g/	.	4b-\	.	.	.	.	.	.	4g\	-num	4b-\	-num	.	.	.	.	.	4gg\	.	4bb-\	.	4gg\	.	4bb-\	.
4r	.	4r	.	4r	.	4ee-\	.	4ee-\	.	.	.	.	.	.	4r	.	4r	.	.	.	.	.	.	4r	.	4r	.	4r	.	4r	.
!	!	!	!	!	!	!	!	!	!	!	!	!	!	!	!LO:LB:g=original	!	!	!	!	!	!	!	!	!	!	!	!	!LO:LB:g=original	!	!	!
=33	=33	=33	=33	=33	=33	=33	=33	=33	=33	=33	=33	=33	=33	=33	=33	=33	=33	=33	=33	=33	=33	=33	=33	=33	=33	=33	=33	=33	=33	=33	=33
4D\	f	4d\	f	4d\	.	4f/	f	4a-/	.	2D\	qui-	.	2B-\	qui-	2f\	qui-	2a-\	qui-	.	4B-/	.	4B-/	.	2.ff\	.	2.aa-\	.	4dd\	f	4ddd\	.
4D\	.	4d\	.	4d\	.	4f/	.	4a-/	f	.	.	.	.	.	.	.	.	.	.	4B-/	.	4B-/	.	.	.	.	.	4dd\	.	4ddd\	.
4D\	.	4d\	.	4d\	.	4f/	.	4a-/	.	4D\	-a	.	4B-\	-a	4f\	-a	4a-\	-a	.	4B-/	.	4B-/	.	.	.	.	.	4dd\	.	4ddd\	.
=34	=34	=34	=34	=34	=34	=34	=34	=34	=34	=34	=34	=34	=34	=34	=34	=34	=34	=34	=34	=34	=34	=34	=34	=34	=34	=34	=34	=34	=34	=34	=34
*2\right	*	*	*	*	*	*	*	*	*	*	*	*	*	*	*	*	*	*	*	*	*	*	*	*	*	*	*	*	*	*	*
*	*	*	*	*	*	*	*	*	*	*	*	*	*	*	*	*	*	*	*	*	*	*	*	*	*	*^	*	*	*	*	*
2.E-;\	.	2.e-;\	.	2.e-;\	.	2.e-;/	.	2.g/	.	2E-\	pi-	.	2B-;\	pi-	2e-;\	pi-	2g;/	pi-	.	2.e-/	.	2.e-/	.	2ee-;\	.	2gg;;\	2.r;yy	.	2.ee-;\	.	2.eee-;<\	.
.	.	.	.	.	.	.	.	.	.	4E-\	-us	.	4B-\	-us	4e-\	-us	4g/	-us	.	.	.	.	.	4ryy	.	4ryy	.	.	.	.	.	.
*	*	*	*	*	*	*	*	*	*	*	*	*	*	*	*	*	*	*	*	*	*	*	*	*	*	*v	*v	*	*	*	*	*
!	!	!	!	!	!	!LO:PB:g=original	!	!	!	!	!	!	!	!	!	!	!	!	!	!	!	!	!	!	!	!	!	!	!	!	!
=35	=35	=35	=35	=35	=35	=35	=35	=35	=35	=35	=35	=35	=35	=35	=35	=35	=35	=35	=35	=35	=35	=35	=35	=35	=35	=35	=35	=35	=35	=35	=35
0.BB-/	.	0B-	.	0B-	.	0.d	.	0.f	.	0.BB-;	es	.	0B-	es	0.d	es	0.f	es	.	0B-	.	0B-	.	0dd	.	0.ff	.	0.b-	.	0.bb-	.
.	.	1ryy	.	1ryy	.	.	.	.	.	.	.	.	1ryy	.	.	.	.	.	.	1ryy	.	1ryy	.	1ryy	.	.	.	.	.	.	.
!	!	!	!	!	!	!	!	!	!	!LO:LB:g=original	!	!	!LO:LB:g=original	!	!	!	!	!	!	!	!	!	!	!	!	!	!	!	!	!LO:LB:g=original	!
=36||	=36||	=36||	=36||	=36||	=36||	=36||	=36||	=36||	=36||	=36||	=36||	=36||	=36||	=36||	=36||	=36||	=36||	=36||	=36||	=36||	=36||	=36||	=36||	=36||	=36||	=36||	=36||	=36||	=36||	=36||	=36||
!	!	!	!	!	!	!	!	!	!	!	!	!	!	!	!	!	!	!	!	!LO:TX:i:a:t=5	!	!LO:TX:i:a:t=5	!	!	!	!	!	!	!	!LO:SIC:o:s=:v: wątpliwości pionów harmonicznych t.36-41	!
!	!	!	!	!	!	!	!	!	!	!	!	!	!	!	!	!	!	!	!	!LO:N:vis=00	!	!LO:N:vis=00	!	!	!	!	!	!	!	!	!
8C/	f	8c/	f	8c/	p	8c/	f	8en/	f	2C/	Re-	.	2G/	Re-	2c/	Re-	2en/	Re-	.	0.r	.	0.r	.	2.cc\	.	[2.eenX\	.	4cc\	f	4ccc\	p
!	!	!LO:SIC:o:s=:v:ósemka łączona belką z półnutą tremolo	!	!LO:SIC:o:s=:v: ósemka łączona belką z półnutą tremolo	!	!	!	!	!	!	!	!	!	!	!	!	!	!	!	!	!	!	!	!	!	!	!	!	!	!	!
8C/L	.	8c\	p	8c/	f	8c/L	.	8e/L	.	.	.	.	.	.	.	.	.	.	.	.	.	.	.	.	.	.	.	.	.	.	.
*	*	*tremolo	*	*tremolo	*	*	*	*	*	*	*	*	*	*	*	*	*	*	*	*	*	*	*	*	*	*	*	*	*	*	*
8C/	p	8c\L	.	8c/L	.	8c/	p	8e/	p	.	.	.	.	.	.	.	.	.	.	.	.	.	.	.	.	.	.	2cc\	p	2ccc\	f
8C/	.	8c\	.	8c/	.	8c/	.	8e/	.	.	.	.	.	.	.	.	.	.	.	.	.	.	.	.	.	.	.	.	.	.	.
8C/	.	8c\	.	8c/	.	8c/	.	8e/	.	4C/	-qui-	.	4G/	-qui-	4c/	-qui-	4e/	-qui-	.	.	.	.	.	.	.	.	.	.	.	.	.
8C/J	.	8c\J	.	8c/J	.	8c/J	.	8e/J	.	.	.	.	.	.	.	.	.	.	.	.	.	.	.	.	.	.	.	.	.	.	.
*	*	*Xtremolo	*	*Xtremolo	*	*	*	*	*	*	*	*	*	*	*	*	*	*	*	*	*	*	*	*	*	*	*	*	*	*	*
!LO:LB:g=original	!	!LO:LB:g=original	!	!LO:LB:g=original	!	!	!	!	!	!	!	!	!	!	!	!	!	!	!	!	!	!	!	!	!	!	!	!	!	!	!
=37	=37	=37	=37	=37	=37	=37	=37	=37	=37	=37	=37	=37	=37	=37	=37	=37	=37	=37	=37	=37	=37	=37	=37	=37	=37	=37	=37	=37	=37	=37	=37
8C/	f	8c/	f	8c/	f	8c/	f	8e-/	f	2C/	-em	.	2G/	-em	2c/	-em	2e-/	-em	.	.	.	.	.	2cc\	.	2een\]	.	4cc\	f	4ccc\	f
8C/L	.	8c\L	.	8c\L	p	8c/L	.	8e-/L	.	.	.	.	.	.	.	.	.	.	.	.	.	.	.	.	.	.	.	.	.	.	.
8C/	p	8c\	p	8c\	.	8c/	p	8e-/	p	.	.	.	.	.	.	.	.	.	.	.	.	.	.	.	.	.	.	2cc\	p	2ccc\	p
8C/	.	8c\	.	8c\	.	8c/	.	8e-/	.	.	.	.	.	.	.	.	.	.	.	.	.	.	.	.	.	.	.	.	.	.	.
!	!	!	!	!	!	!	!	!	!	!LO:SIC:s=:v:a-	!	!	!	!	!	!	!	!	!	!	!	!	!	!	!	!	!	!	!	!	!
8C/	.	8c\	.	8c\	.	8c/	.	8e-/	.	4C/	e-	.	4G/	a-	4c/	a-	4e-/	a-	.	.	.	.	.	4cc\	.	4eeny\	.	.	.	.	.
8C/J	.	8c\J	.	8c\J	.	8c/J	.	8e-/J	.	.	.	.	.	.	.	.	.	.	.	.	.	.	.	.	.	.	.	.	.	.	.
!	!	!	!	!	!	!	!	!LO:LB:g=original	!	!	!	!	!	!	!	!	!	!	!	!	!	!	!	!	!	!LO:LB:g=original	!	!	!	!	!
=38	=38	=38	=38	=38	=38	=38	=38	=38	=38	=38	=38	=38	=38	=38	=38	=38	=38	=38	=38	=38	=38	=38	=38	=38	=38	=38	=38	=38	=38	=38	=38
8C/	f	8c/	.	8c/	f	8c/	f	8f/	f	2.C/	-ter-	.	2.A-/	-ter-	2.c/	-ter-	2.f/	-ter-	.	.	.	.	.	2.a-\	.	2.ff\	.	4cc\	f	4ccc\	f
8C/L	.	8c\L	.	8c\L	.	8c/L	.	8f/L	p	.	.	.	.	.	.	.	.	.	.	.	.	.	.	.	.	.	.	.	.	.	.
8C/	p	8c\	f	8c\	p	8c/	p	8f/	.	.	.	.	.	.	.	.	.	.	.	.	.	.	.	.	.	.	.	2cc\	p	2ccc\	p
8C/	.	8c\	p	8c\	.	8c/	.	8f/	.	.	.	.	.	.	.	.	.	.	.	.	.	.	.	.	.	.	.	.	.	.	.
8C/	.	8c\	.	8c\	.	8c/	.	8f/	.	.	.	.	.	.	.	.	.	.	.	.	.	.	.	.	.	.	.	.	.	.	.
8C/J	.	8c\J	.	8c\J	.	8c/J	.	8f/J	.	.	.	.	.	.	.	.	.	.	.	.	.	.	.	.	.	.	.	.	.	.	.
=39	=39	=39	=39	=39	=39	=39	=39	=39	=39	=39	=39	=39	=39	=39	=39	=39	=39	=39	=39	=39	=39	=39	=39	=39	=39	=39	=39	=39	=39	=39	=39
!!pagebreak:original
8C/	f	8c/	f	8c\	f	8c/	f	8en/	f	2C/	-nam	.	2G/	-nam	2c/	-nam	2en/	-nam	.	.	.	.	.	2cc\	.	2ee-\	.	4cc\	f	4ccc\	f
8C/L	.	8c\L	.	8c\L	.	8c/L	.	8e/L	p	.	.	.	.	.	.	.	.	.	.	.	.	.	.	.	.	.	.	.	.	.	.
8C/	p	8c\	p	8c\	p	8c/	p	8e/	.	.	.	.	.	.	.	.	.	.	.	.	.	.	.	.	.	.	.	2cc\	p	2ccc\	p
8C/	.	8c\	.	8c\	.	8c/	.	8e/	.	.	.	.	.	.	.	.	.	.	.	.	.	.	.	.	.	.	.	.	.	.	.
8C/	.	8c\	.	8c\	.	8c/	.	8e/	.	4r	.	.	4r	.	4r	.	4r	.	.	.	.	.	.	4r	.	4r	.	.	.	.	.
*	*	*	*	*	*	*custos:cc	*	*	*	*	*	*	*	*	*	*	*	*	*	*	*	*	*	*	*	*	*	*	*	*	*
8C/J	.	8c\J	.	8c\J	.	8c/J	.	8e/J	.	.	.	.	.	.	.	.	.	.	.	.	.	.	.	.	.	.	.	.	.	.	.
!	!	!	!	!	!	!LO:LB:g=original	!	!	!	!	!	!	!	!	!	!	!LO:LB:g=original	!	!	!	!	!	!	!	!	!	!	!	!	!	!
=40	=40	=40	=40	=40	=40	=40	=40	=40	=40	=40	=40	=40	=40	=40	=40	=40	=40	=40	=40	=40	=40	=40	=40	=40	=40	=40	=40	=40	=40	=40	=40
8F\	f	8f\	f	8e-\	f	8c/	f	8f/	f	2F\	Do-	.	2A-/	Do-	2c\	Do-	2f/	Do-	.	2.r	.	2.r	.	2.cc\	.	[<2.aa-\	.	4ff\	f	4eee-\	f
8F\L	.	8f\L	.	8e-\L	.	8f/L	.	8a-/L	p	.	.	.	.	.	.	.	.	.	.	.	.	.	.	.	.	.	.	.	.	.	.
8F\	p	8f\	p	8e-\	p	8f/	.	8a-/	.	.	.	.	.	.	.	.	.	.	.	.	.	.	.	.	.	.	.	2ff\	p	2eee-\	p
8F\	.	8f\	.	8e-\	.	8f/	p	8a-/	.	.	.	.	.	.	.	.	.	.	.	.	.	.	.	.	.	.	.	.	.	.	.
8F\	.	8f\	.	8e-\	.	8f/	.	8a-/	.	4F\	-na	.	4A-/	-na	4c\	-na	4f/	-na	.	.	.	.	.	.	.	.	.	.	.	.	.
8F\J	.	8f\J	.	8e-\J	.	8f/J	.	8a-/J	.	.	.	.	.	.	.	.	.	.	.	.	.	.	.	.	.	.	.	.	.	.	.
!	!	!	!	!	!	!	!	!	!	!	!	!	!	!	!	!	!	!	!	!	!	!	!	!LO:LB:g=original	!	!	!	!	!	!	!
=41	=41	=41	=41	=41	=41	=41	=41	=41	=41	=41	=41	=41	=41	=41	=41	=41	=41	=41	=41	=41	=41	=41	=41	=41	=41	=41	=41	=41	=41	=41	=41
8D\	f	8d\	f	8d\	f	8c/	f	8a-/	f	2D\	e-	.	2B-\	e-	2d\	e-	2f/	e-	.	4r	.	4r	.	2b-\	.	2.aa-\]	.	4dd\	f	4ddd\	f
8D\L	.	8d\L	p	8d\L	.	8f/L	.	8a-/L	.	.	.	.	.	.	.	.	.	.	.	.	.	.	.	.	.	.	.	.	.	.	.
8D\	p	8d\	.	8d\	p	8f/	p	8a-/	p	.	.	.	.	.	.	.	.	.	.	4r	.	4r	.	.	.	.	.	2dd\	p	2ddd\	p
8D\	.	8d\	.	8d\	.	8f/	.	8a-/	.	.	.	.	.	.	.	.	.	.	.	.	.	.	.	.	.	.	.	.	.	.	.
8D\	.	8d\	.	8d\	.	8f/	.	8a-/	.	4D\	-is	.	4B-\	-is	4f\	-is	4a-\	-is	.	4ff\	.	4aa-\	.	4ff\	.	.	.	.	.	.	.
8D\J	.	8d\J	.	8d\J	.	8f/J	.	8a-/J	.	.	.	.	.	.	.	.	.	.	.	.	.	.	.	.	.	.	.	.	.	.	.
!	!	!LO:LB:g=original	!	!	!	!	!	!	!	!	!	!	!	!	!LO:LB:g=original	!	!	!	!	!	!	!	!	!	!	!	!	!LO:LB:g=original	!	!	!
=42	=42	=42	=42	=42	=42	=42	=42	=42	=42	=42	=42	=42	=42	=42	=42	=42	=42	=42	=42	=42	=42	=42	=42	=42	=42	=42	=42	=42	=42	=42	=42
8E-\	f	8e-\	f	8e-\	f	8e-/	f	8g/	f	2E-\	Do-	.	2B-\	Do-	2e-\	Do-	2g\	Do-	.	2.ee-\	.	2.gg\	.	2.ee-\	.	2.gg\	.	4ee-\	f	4eee-\	f
!	!	!	!	!LO:SIC:o:s=:v: ósemka łączona belką z półnutą tremolo	!	!	!	!	!	!	!	!	!	!	!	!	!	!	!	!	!	!	!	!	!	!	!	!	!	!	!
8E-\L	.	8e-\L	p	8e-\	p	8e-/L	.	8g/L	p	.	.	.	.	.	.	.	.	.	.	.	.	.	.	.	.	.	.	.	.	.	.
*	*	*	*	*tremolo	*	*	*	*	*	*	*	*	*	*	*	*	*	*	*	*	*	*	*	*	*	*	*	*	*	*	*
8E-\	p	8e-\	.	8e-\L	.	8e-/	p	8g/	.	.	.	.	.	.	.	.	.	.	.	.	.	.	.	.	.	.	.	2ee-\	p	2eee-\	p
8E-\	.	8e-\	.	8e-\	.	8e-/	.	8g/	.	.	.	.	.	.	.	.	.	.	.	.	.	.	.	.	.	.	.	.	.	.	.
8E-\	.	8e-\	.	8e-\	.	8e-/	.	8g/	.	4E-\	-mi-	.	4B-\	-mi-	4e-\	-mi-	4g\	-mi-	.	.	.	.	.	.	.	.	.	.	.	.	.
8E-\J	.	8e-\J	.	8e-\J	.	8e-/J	.	8g/J	.	.	.	.	.	.	.	.	.	.	.	.	.	.	.	.	.	.	.	.	.	.	.
*	*	*	*	*Xtremolo	*	*	*	*	*	*	*	*	*	*	*	*	*	*	*	*	*	*	*	*	*	*	*	*	*	*	*
!	!	!	!	!LO:LB:g=original	!	!	!	!LO:LB:g=original	!	!	!	!	!	!	!	!	!	!	!	!	!	!	!	!	!	!	!	!	!	!	!
=43	=43	=43	=43	=43	=43	=43	=43	=43	=43	=43	=43	=43	=43	=43	=43	=43	=43	=43	=43	=43	=43	=43	=43	=43	=43	=43	=43	=43	=43	=43	=43
8BB-/	f	8B-/	f	8B-/	f	8d/	f	8f/	f	2AA-/	-ne	.	2B-\	-ne	2d\	-ne	2f/	-ne	.	2b-/	.	2ff\	.	2dd\	.	2ff\	.	4bb-\	f	4bb-\	f
8BB-/L	.	8B-/L	.	8B-/L	.	8d/L	.	8f/L	.	.	.	.	.	.	.	.	.	.	.	.	.	.	.	.	.	.	.	.	.	.	.
8BB-/	p	8B-/	p	8B-/	p	8d/	p	8f/	p	.	.	.	.	.	.	.	.	.	.	.	.	.	.	.	.	.	.	2bb-\	p	2bb-\	p
8BB-/	.	8B-/	.	8B-/	.	8d/	.	8f/	.	.	.	.	.	.	.	.	.	.	.	.	.	.	.	.	.	.	.	.	.	.	.
8BB-/	.	8B-/	.	8B-/	.	8d/	.	8f/	.	4r	.	.	4r	.	4r	.	4r	.	.	4r	.	4r	.	4r	.	4r	.	.	.	.	.
8BB-/J	.	8B-/J	.	8B-/J	.	8d/J	.	8f/J	.	.	.	.	.	.	.	.	.	.	.	.	.	.	.	.	.	.	.	.	.	.	.
!LO:LB:g=original	!	!	!	!	!	!	!	!	!	!LO:LB:g=original	!	!	!LO:LB:g=original	!	!	!	!	!	!	!	!	!	!	!	!	!	!	!	!	!	!
=44	=44	=44	=44	=44	=44	=44	=44	=44	=44	=44	=44	=44	=44	=44	=44	=44	=44	=44	=44	=44	=44	=44	=44	=44	=44	=44	=44	=44	=44	=44	=44
!	!	!	!	!	!	!	!	!	!	!	!	!	!	!	!	!	!	!	!	!LO:TX:i:a:t=4	!	!LO:TX:i:a:t=4	!	!LO:TX:i:a:t=4	!	!LO:N:vis=00	!	!	!	!	!
!	!	!	!	!	!	!	!	!	!	!	!	!	!	!	!	!	!	!	!	!LO:N:vis=00	!	!LO:N:vis=00	!	!LO:N:vis=00	!	!	!	!	!	!	!
8C/	f	8c\	f	8c/	f	8c/	f	8e-/	f	4C/	et	.	4G/	et	4c/	et	4e-/	et	.	0.r	.	0.r	.	0.r	.	0.r	.	4ccc\	f	4ccc\	f
8C/L	.	8c\L	.	8c\L	.	8c/L	p	8e-/L	.	.	.	.	.	.	.	.	.	.	.	.	.	.	.	.	.	.	.	.	.	.	.
8C/	p	8c\	p	8c\	p	8c/	.	8e-/	p	4C/	Lux	.	4G/	lux	4c/	Lux	4e-/	lux	.	.	.	.	.	.	.	.	.	2ccc\	p	2ccc\	p
8C/	.	8c\	.	8c\	.	8c/	.	8e-/	.	.	.	.	.	.	.	.	.	.	.	.	.	.	.	.	.	.	.	.	.	.	.
8C/	.	8c\	.	8c\	.	8c/	.	8e-/	.	4C/	per-	.	4G/	per-	4c/	per-	4e-/	per-	.	.	.	.	.	.	.	.	.	.	.	.	.
*	*	*	*	*	*	*custos:cc	*	*	*	*	*	*	*	*	*	*	*	*	*	*	*	*	*	*	*	*	*	*	*	*	*
8C/J	.	8c\J	.	8c\J	.	8c/J	.	8e-/J	.	.	.	.	.	.	.	.	.	.	.	.	.	.	.	.	.	.	.	.	.	.	.
!	!	!	!	!	!	!LO:LB:g=original	!	!	!	!	!	!	!	!	!	!	!	!	!	!	!	!	!	!	!	!	!	!	!	!	!
=45	=45	=45	=45	=45	=45	=45	=45	=45	=45	=45	=45	=45	=45	=45	=45	=45	=45	=45	=45	=45	=45	=45	=45	=45	=45	=45	=45	=45	=45	=45	=45
8AA-/	f	8A-/	f	8A-/	f	8c/	f	8e-/	f	4AA-/	-pe-	.	4A-/	-pe-	4.c/	-pe-	4.e-/	-pe-	.	.	.	.	.	.	.	.	.	4aa-\	f	4aa-\	f
8AA-/L	.	8A-/L	.	8A-/L	.	8c/L	.	8e-/L	.	.	.	.	.	.	.	.	.	.	.	.	.	.	.	.	.	.	.	.	.	.	.
8AA-/	p	8A-/	p	8A-/	p	8c/	p	8e-/	p	4AA-/	-tu-	.	4A-/	-tu-	.	.	.	.	.	.	.	.	.	.	.	.	.	2aa-\	p	2aa-\	p
8AA-/	.	8A-/	.	8A-/	.	8c/	.	8e-/	.	.	.	.	.	.	8c/	-tu-	8e-/	-tu-	.	.	.	.	.	.	.	.	.	.	.	.	.
8AA-/	.	8A-/	.	8A-/	.	8c/	.	8e-/	.	4AA-/	-a	.	4A-/	-a	4c/	-a	4e-/	-a	.	.	.	.	.	.	.	.	.	.	.	.	.
8AA-/J	.	8A-/J	.	8A-/J	.	8c/J	.	8e-/J	.	.	.	.	.	.	.	.	.	.	.	.	.	.	.	.	.	.	.	.	.	.	.
=46	=46	=46	=46	=46	=46	=46	=46	=46	=46	=46	=46	=46	=46	=46	=46	=46	=46	=46	=46	=46	=46	=46	=46	=46	=46	=46	=46	=46	=46	=46	=46
!	!	!	!	!	!	!	!	!	!	!	!	!	!	!	!	!	!	!	!	!	!	!	!	!	!	!	!	!	!	!LO:LB:g=original	!
8AAn/	f	8An/	f	8An/	f	8c/	f	8e-/	f	4.AAn/	Lu-	.	4.F/	Lu-	4.c/	Lu-	4.e-/	Lu-	.	.	.	.	.	.	.	.	.	4aan\	f	4aan\	f
8AA/L	.	8A/L	p	8A/L	p	8c/L	.	8e-/L	.	.	.	.	.	.	.	.	.	.	.	.	.	.	.	.	.	.	.	.	.	.	.
8AA/	.	8A/	.	8A/	.	8c/	p	8e-/	p	.	.	.	.	.	.	.	.	.	.	.	.	.	.	.	.	.	.	2aa\	p	2aa\	p
8AA/	p	8A/	.	8A/	.	8c/	.	8e-/	.	8AA/	-ce-	.	8F/	-ce-	8c/	-ce-	8e-/	-ce-	.	.	.	.	.	.	.	.	.	.	.	.	.
8AA/	.	8A/	.	8A/	.	8c/	.	8e-/	.	4AA/	-at	.	4F/	-at	4c/	-at	4e-/	-at	.	.	.	.	.	.	.	.	.	.	.	.	.
8AA/J	.	8A/J	.	8A/J	.	8c/J	.	8e-/J	.	.	.	.	.	.	.	.	.	.	.	.	.	.	.	.	.	.	.	.	.	.	.
!	!	!LO:LB:g=original	!	!	!	!	!	!	!	!	!	!	!	!	!	!	!	!	!	!	!	!	!	!	!	!	!	!	!	!	!
=47	=47	=47	=47	=47	=47	=47	=47	=47	=47	=47	=47	=47	=47	=47	=47	=47	=47	=47	=47	=47	=47	=47	=47	=47	=47	=47	=47	=47	=47	=47	=47
!LO:SIC:s=:v:4AAn	!	!LO:SIC:s=:v:4An	!	!LO:SIC:s=:v:4An	!	!	!	!	!	!LO:SIC:s=:v:4AAn	!	!	!	!	!	!	!	!	!	!	!	!	!	!	!	!	!	!LO:SIC:s=:v:4aan	!	!LO:SIC:s=:v:4aan	!
4AA-/	f	4A-/	.	4An/	f	4c/	f	4e-/	f	4AA-/	e-	.	4F/	e-	4c/	e-	4e-/	e-	.	.	.	.	.	.	.	.	.	4aa-\	f	4aan\	f
4BB-/	.	4B-/	.	4B-/	.	4B-/	.	4d/	.	4BB-/	-is	.	4F/	-is	4B-/	-is	4d/	-is	.	.	.	.	.	.	.	.	.	4bb-\	.	4bb-\	.
4r	.	4r	.	4r	.	4r	.	4r	.	4r	.	.	4r	.	4r	.	4r	.	.	.	.	.	.	.	.	.	.	4r	.	4r	.
!	!	!	!	!	!	!	!	!LO:TX:b:t=Cito Vertat(ur)	!	!	!	!	!	!	!	!	!	!	!	!	!	!	!	!	!	!	!	!	!	!	!
!	!	!	!	!	!	!	!	!LO:PB:g=original	!	!	!	!	!	!	!	!	!LO:LB:g=original	!	!	!LO:LB:g=original	!	!	!	!	!	!	!	!	!	!	!
=48	=48	=48	=48	=48	=48	=48	=48	=48	=48	=48	=48	=48	=48	=48	=48	=48	=48	=48	=48	=48	=48	=48	=48	=48	=48	=48	=48	=48	=48	=48	=48
!	!	!LO:TX:i:a:t=2	!	!LO:TX:i:a:t=2	!	!	!	!	!	!	!	!	!LO:TX:i:a:t=4	!	!LO:TX:i:a:t=Solo	!	!	!	!	!	!	!	!	!	!	!	!	!LO:TX:i:a:t=2.	!	!LO:TX:i:a:t=2.	!
!	!	!LO:N:vis=0	!	!LO:N:vis=0	!	!	!	!	!	!	!	!	!LO:N:vis=00	!	!	!	!	!	!	!	!	!	!	!	!	!	!	!LO:N:vis=0	!	!LO:N:vis=0	!
8B-\L	.	1.r	.	1.r	.	8d/L	.	8f/L	p	0.r	.	.	0.r	.	4d\	Cum	4f/	Cum	.	4b-/	p	4b-/	p	4dd\	.	4ff\	.	1.r	.	1.r	.
8B-\	p	.	.	.	.	8d/	.	8f/	.	.	.	.	.	.	.	.	.	.	.	.	.	.	.	.	.	.	.	.	.	.	.
8B-\	.	.	.	.	.	8e-/	p	8g/	.	.	.	.	.	.	4e-\	Sanc-	4g/	Sanc-	.	4b-/	.	4b-/	.	4ee-\	.	4gg\	.	.	.	.	.
8B-\	.	.	.	.	.	8e-/	.	8g/	.	.	.	.	.	.	.	.	.	.	.	.	.	.	.	.	.	.	.	.	.	.	.
8B-\	.	.	.	.	.	8f/	.	8a-/	.	.	.	.	.	.	4f\	-tis	4a-/	-tis	.	4b-/	.	4b-/	.	4ff\	.	4aa-\	.	.	.	.	.
8B-\J	.	.	.	.	.	8f/J	.	8a-/J	.	.	.	.	.	.	.	.	.	.	.	.	.	.	.	.	.	.	.	.	.	.	.
!	!	!	!	!	!	!	!	!	!	!	!	!	!	!	!LO:LB:g=original	!	!	!	!	!	!	!LO:LB:g=original	!	!	!	!	!	!	!	!	!
=49	=49	=49	=49	=49	=49	=49	=49	=49	=49	=49	=49	=49	=49	=49	=49	=49	=49	=49	=49	=49	=49	=49	=49	=49	=49	=49	=49	=49	=49	=49	=49
4B-\	.	.	.	.	.	4f/	.	4a-/	.	.	.	.	.	.	4f\	tu-	4a-\	tu-	.	4b-/	.	4b-/	.	4ff\	.	4aa-\	.	.	.	.	.
4E-\	.	.	.	.	.	4e-/	.	4g/	.	.	.	.	.	.	4e-\	-is	4g\	-is	.	4e-/	.	4e-/	.	4ee-\	.	4gg\	.	.	.	.	.
!	!	!	!	!	!	!LO:TX:b:t=dol&colon;	!	!LO:TX:b:t=dol	!	!	!	!	!	!	!	!	!	!	!	!	!	!	!	!	!	!	!	!	!	!	!
4r	.	.	.	.	.	4ee-\	.	4ee-\	.	.	.	.	.	.	4r	.	4r	.	.	4r	.	4r	.	4r	.	4r	.	.	.	.	.
!	!	!	!	!	!	!	!	!	!	!	!	!	!	!	!	!	!	!	!	!	!	!	!	!	!	!	!	!	!	!LO:TX:b:t=Cito Vertatur	!
!	!	!	!	!LO:LB:g=original	!	!	!	!	!	!	!	!	!	!	!	!	!	!	!	!	!	!	!	!	!	!	!	!	!	!LO:PB:g=original	!
=50	=50	=50	=50	=50	=50	=50	=50	=50	=50	=50	=50	=50	=50	=50	=50	=50	=50	=50	=50	=50	=50	=50	=50	=50	=50	=50	=50	=50	=50	=50	=50
!	!	!	!	!	!	!	!	!	!	!	!	!	!	!	!	!	!	!	!	!LO:TX:i:a:t=2	!	!	!	!	!	!	!	!	!	!	!
!	!	!	!	!	!	!	!	!	!	!	!	!	!	!	!	!	!	!	!	!LO:N:vis=0	!	!LO:N:vis=0	!	!	!	!	!	!	!	!	!
8E-\L	.	4e-\	.	4g\	.	4e-/	.	4g/	.	.	.	.	.	.	4e-\	in	4g\	in	.	1.r	.	1.r	.	4ee-\	.	4gg\	.	4ee-\	.	4gg\	.
8E-\	.	.	.	.	.	.	.	.	.	.	.	.	.	.	.	.	.	.	.	.	.	.	.	.	.	.	.	.	.	.	.
8E-\	.	4f\	.	4a-\	.	4f/	.	(4a-/	.	.	.	.	.	.	(4f\	a-	(4a-\	a-	.	.	.	.	.	4ff\	.	4aa-\	.	4ff\	.	4aa-\	.
8E-\	.	.	.	.	.	.	.	.	.	.	.	.	.	.	.	.	.	.	.	.	.	.	.	.	.	.	.	.	.	.	.
8E-\	.	4g\	.	4b-\	.	4g/	.	4b-/)	.	.	.	.	.	.	4g\)	.	4b-\)	.	.	.	.	.	.	4gg\	.	4bb-\	.	4gg\	.	4bb-\	.
8E-\J	.	.	.	.	.	.	.	.	.	.	.	.	.	.	.	.	.	.	.	.	.	.	.	.	.	.	.	.	.	.	.
!	!	!	!	!	!	!LO:LB:g=original	!	!	!	!	!	!	!	!	!	!	!	!	!	!	!	!	!	!	!	!	!	!	!	!	!
=51	=51	=51	=51	=51	=51	=51	=51	=51	=51	=51	=51	=51	=51	=51	=51	=51	=51	=51	=51	=51	=51	=51	=51	=51	=51	=51	=51	=51	=51	=51	=51
4AA-/	.	4a-\	.	4cc\	.	4a-/	.	4cc\	.	.	.	.	.	.	4a-\	-ter-	4cc\	-ter-	.	.	.	.	.	4aa-\	.	4ccc\	.	4aa-\	.	4ccc\	.
4E-\	.	4g\	.	4b-\	.	4g/	.	4b-\	.	.	.	.	.	.	4g\	-num	4b-\	-num	.	.	.	.	.	4gg\	.	4bb-\	.	4gg\	.	4bb-\	.
4r	.	4r	.	4r	.	4r	.	4r	.	.	.	.	.	.	4r	.	4r	.	.	.	.	.	.	4r	.	4r	.	4r	.	4r	.
!LO:TX:b:t=Cito Vertat(ur)	!	!	!	!	!	!	!	!	!	!	!	!	!	!	!	!	!	!	!	!	!	!	!	!	!	!	!	!	!	!	!
!LO:PB:g=original	!	!	!	!	!	!	!	!	!	!	!	!	!	!	!	!	!	!	!	!	!	!	!	!	!	!	!	!LO:LB:g=original	!	!	!
=52	=52	=52	=52	=52	=52	=52	=52	=52	=52	=52	=52	=52	=52	=52	=52	=52	=52	=52	=52	=52	=52	=52	=52	=52	=52	=52	=52	=52	=52	=52	=52
8D\	f	2f\	.	2a-\	.	2f/	f	2a-/	f	2D\	qui-	.	2.B-\	qui-	2f\	qui-	(2a-\	qui-	.	2ff\	.	2aa-\	.	2ff\	.	2aa-\	.	2ff\	.	2aa-\	.
8D\L	.	.	.	.	.	.	.	.	.	.	.	.	.	.	.	.	.	.	.	.	.	.	.	.	.	.	.	.	.	.	.
8D\	p	.	.	.	.	.	.	.	.	.	.	.	.	.	.	.	.	.	.	.	.	.	.	.	.	.	.	.	.	.	.
8D\	.	.	.	.	.	.	.	.	.	.	.	.	.	.	.	.	.	.	.	.	.	.	.	.	.	.	.	.	.	.	.
8E-\	.	4e-\	.	4g\	.	4e-/	p	4g/	p	4E-\	-a	.	.	.	4e-\	-a	4g\)	.	.	4ee-\	.	4gg\	.	4ee-\	.	4gg\	.	4ee-\	.	4gg\	.
8E-\J	.	.	.	.	.	.	.	.	.	.	.	.	.	.	.	.	.	.	.	.	.	.	.	.	.	.	.	.	.	.	.
!	!	!	!	!	!	!	!	!	!	!LO:LB:g=original	!	!	!	!	!	!	!	!	!	!	!	!	!	!	!	!	!	!	!	!	!
=53	=53	=53	=53	=53	=53	=53	=53	=53	=53	=53	=53	=53	=53	=53	=53	=53	=53	=53	=53	=53	=53	=53	=53	=53	=53	=53	=53	=53	=53	=53	=53
8AA-/	f	4f\	.	4a-\	.	4f/	f	4a-/	f	4AA-/	pi-	.	4c\	-a	2e-\	pi-	4f/	-a	.	4ff\	.	4aa-\	.	4ff\	.	4aa-\	.	4ff\	.	4aa-\	.
8AA-/L	.	.	.	.	.	.	.	.	.	.	.	.	.	.	.	.	.	.	.	.	.	.	.	.	.	.	.	.	.	.	.
8BB-/	p	4e-\	.	4g\	.	4e-/	.	4g/	.	2BB-/	-us	.	4B-\	pi-	.	.	4g/	pi-	.	4ee-\	.	4gg\	.	4ee-\	.	4gg\	.	4ee-\	.	4gg\	.
8BB-/	.	.	.	.	.	.	.	.	.	.	.	.	.	.	.	.	.	.	.	.	.	.	.	.	.	.	.	.	.	.	.
8BB-/	.	4d\	.	4f\	.	4d/	p	4f/	p	.	.	.	4B-\	-us	4d\	-us	4f/	-us	.	8b-/L	.	4ff\	.	4dd\	.	4ff\	.	4dd\	.	4ff\	.
8BB-/J	.	.	.	.	.	.	.	.	.	.	.	.	.	.	.	.	.	.	.	8b-/J	.	.	.	.	.	.	.	.	.	.	.
!	!	!	!	!	!	!	!	!	!	!	!	!	!LO:LB:g=original	!	!	!	!	!	!	!	!	!	!	!LO:LB:g=original	!	!LO:LB:g=original	!	!	!	!	!
=54	=54	=54	=54	=54	=54	=54	=54	=54	=54	=54	=54	=54	=54	=54	=54	=54	=54	=54	=54	=54	=54	=54	=54	=54	=54	=54	=54	=54	=54	=54	=54
8EE-/|	f	4e-\	.	4e-\	.	8e-/	f	8e-/	f	2EE-/	es	.	2B-\	es	2e-\	es	2e-/	es	.	4g/	.	4ee-\	.	4ee-\	.	4ee-\	.	4ee-\	.	4ee-\	.
8E-\L	.	.	.	.	.	8g/L	p	8ee-\L	.	.	.	.	.	.	.	.	.	.	.	.	.	.	.	.	.	.	.	.	.	.	.
8E-\	p	4r	.	4r	.	8g/	.	8ee-\	p	.	.	.	.	.	.	.	.	.	.	4r	.	4r	.	4r	.	4r	.	4r	.	4r	.
8E-\	.	.	.	.	.	8g/	.	8b-\	.	.	.	.	.	.	.	.	.	.	.	.	.	.	.	.	.	.	.	.	.	.	.
8E-\	.	4r	.	4r	.	8g/J	.	8b-\	.	4r	.	.	4r	.	4r	.	4r	.	.	4r	.	4r	.	4r	.	4r	.	4r	.	4r	.
8E-\J	.	.	.	.	.	8B-/	.	8g\J	.	.	.	.	.	.	.	.	.	.	.	.	.	.	.	.	.	.	.	.	.	.	.
!	!	!	!	!	!	!	!	!LO:LB:g=original	!	!	!	!	!	!	!	!	!	!	!	!	!	!	!	!	!	!	!	!	!	!	!
=55	=55	=55	=55	=55	=55	=55	=55	=55	=55	=55	=55	=55	=55	=55	=55	=55	=55	=55	=55	=55	=55	=55	=55	=55	=55	=55	=55	=55	=55	=55	=55
8E-\|	f	4g\	.	4b-\	.	8G/	f	8A-/|	f	4E-\	Cum	.	4G/	Cum	4B-/	Cum	4e-/	Cum	.	4e-/	.	4ee-\	.	4gg\	.	4bb-\	.	4gg\	.	4bb-\	.
8E-\L	.	.	.	.	.	8B-/L	p	8g/L	.	.	.	.	.	.	.	.	.	.	.	.	.	.	.	.	.	.	.	.	.	.	.
8E-\	p	4g\	.	4b-\	.	8B-/	.	8g/	p	4E-\	Sanc-	.	4G/	Sanc-	4B-/	Sanc-	4e-/	sanc-	.	4r	.	4r	.	4r	.	4r	.	4gg\	.	4bb-\	.
8E-\	.	.	.	.	.	8B-/	.	8g/	.	.	.	.	.	.	.	.	.	.	.	.	.	.	.	.	.	.	.	.	.	.	.
8E-\	.	4g\	.	4b-\	.	8B-/	.	8g/	.	4E-\	-tis	.	4G/	-tis	4B-/	-tis	4e-/	-tis	.	4r	.	4r	.	4r	.	4r	.	4gg\	.	4bb-\	.
8E-\J	.	.	.	.	.	8B-/J	.	8g/J	.	.	.	.	.	.	.	.	.	.	.	.	.	.	.	.	.	.	.	.	.	.	.
!	!	!	!	!	!	!	!	!	!	!	!	!	!	!	!	!	!LO:LB:g=original	!	!	!	!	!	!	!	!	!	!	!	!	!	!
=56	=56	=56	=56	=56	=56	=56	=56	=56	=56	=56	=56	=56	=56	=56	=56	=56	=56	=56	=56	=56	=56	=56	=56	=56	=56	=56	=56	=56	=56	=56	=56
8E-\|	f	2.a-\	.	2.cc\	.	8A-/	f	8c/|	f	2.E-\	tu-	.	2.A-/	tu-	2.c/	tu-	2.e-/	Tu-	.	4e-/	.	4ee-\	.	4aa-\	.	4ccc\	.	2.aa-\	.	2.ccc\	.
8E-\L	.	.	.	.	.	8c/L	p	8a-/L	p	.	.	.	.	.	.	.	.	.	.	.	.	.	.	.	.	.	.	.	.	.	.
8E-\	p	.	.	.	.	8c/	.	8a-/	.	.	.	.	.	.	.	.	.	.	.	4r	.	4r	.	4r	.	4r	.	.	.	.	.
8E-\	.	.	.	.	.	8c/	.	8a-/	.	.	.	.	.	.	.	.	.	.	.	.	.	.	.	.	.	.	.	.	.	.	.
8E-\	.	.	.	.	.	8c/	.	8a-/	.	.	.	.	.	.	.	.	.	.	.	4r	.	4r	.	4r	.	4r	.	.	.	.	.
8E-\J	.	.	.	.	.	8c/J	.	8a-/J	.	.	.	.	.	.	.	.	.	.	.	.	.	.	.	.	.	.	.	.	.	.	.
!LO:PB:g=original	!	!LO:PB:g=original	!	!	!	!LO:LB:g=original	!	!	!	!	!	!	!	!	!LO:LB:g=original	!	!	!	!	!	!	!	!	!	!	!	!	!	!	!	!
=57	=57	=57	=57	=57	=57	=57	=57	=57	=57	=57	=57	=57	=57	=57	=57	=57	=57	=57	=57	=57	=57	=57	=57	=57	=57	=57	=57	=57	=57	=57	=57
8E-\|	f	4g\	.	4b-\	.	8G/	f	8B-/|	f	2.E-\	-is	.	2G/	-is	2B-/	-is	2.e-/	-is	.	4e-/	.	4ee-\	.	4gg\	.	4bb-\	.	4gg\	.	4bb-\	.
8E-\L	.	.	.	.	.	8g/L	.	8b-/L	.	.	.	.	.	.	.	.	.	.	.	.	.	.	.	.	.	.	.	.	.	.	.
8E-\	p	4r	.	4r	.	8g/	p	8b-/	p	.	.	.	.	.	.	.	.	.	.	4r	.	4r	.	4r	.	4r	.	4r	.	4r	.
8E-\	.	.	.	.	.	8e-/	.	8g/	.	.	.	.	.	.	.	.	.	.	.	.	.	.	.	.	.	.	.	.	.	.	.
8E-\	.	4r	.	4r	.	8e-/J	.	8g/	.	.	.	.	4r	.	4r	.	.	.	.	4r	.	4r	.	4r	.	4r	.	4r	.	4r	.
8E-\J	.	.	.	.	.	8B-/	.	8e-/J	.	.	.	.	.	.	.	.	.	.	.	.	.	.	.	.	.	.	.	.	.	.	.
!	!	!	!	!LO:PB:g=original	!	!	!	!	!	!	!	!	!	!	!	!	!	!	!	!	!	!	!	!	!	!	!	!	!	!LO:LB:g=original	!
=58	=58	=58	=58	=58	=58	=58	=58	=58	=58	=58	=58	=58	=58	=58	=58	=58	=58	=58	=58	=58	=58	=58	=58	=58	=58	=58	=58	=58	=58	=58	=58
8E-\|	f	4r	.	4r	.	8G/	f	8B-/|	f	2E-\	in	.	4r	.	4r	.	2e-/	in	.	4e-/	.	4ee-\	.	4gg\	.	4bb-\	.	4r	.	4r	.
8E-\L	.	.	.	.	.	8B-/L	p	8g/L	.	.	.	.	.	.	.	.	.	.	.	.	.	.	.	.	.	.	.	.	.	.	.
8E-\	.	4g\	.	4b-\	.	8B-/	.	8g/	p	.	.	.	4G/	in	4B-/	in	.	.	.	4r	.	4r	.	4r	.	4r	.	4gg\	.	4bb-\	.
8E-\	p	.	.	.	.	8B-/	.	8g/	.	.	.	.	.	.	.	.	.	.	.	.	.	.	.	.	.	.	.	.	.	.	.
8E-\	.	4g\	.	4b-\	.	8B-/	.	8g/	.	4E-\	a-	.	4G/	a-	4B-/	a-	4e-/	a-	.	4r	.	4r	.	4r	.	4r	.	4gg\	.	4bb-\	.
8E-\J	.	.	.	.	.	8B-/J	.	8g/J	.	.	.	.	.	.	.	.	.	.	.	.	.	.	.	.	.	.	.	.	.	.	.
!	!	!	!	!	!	!	!	!	!	!	!	!	!	!	!	!	!	!	!	!LO:LB:g=original	!	!	!	!	!	!	!	!	!	!	!
=59	=59	=59	=59	=59	=59	=59	=59	=59	=59	=59	=59	=59	=59	=59	=59	=59	=59	=59	=59	=59	=59	=59	=59	=59	=59	=59	=59	=59	=59	=59	=59
8E-\|	f	2.a-\	.	2.cc\	.	8A-/	f	8c/|	f	2.E-\	-ter-	.	2.A-/	-ter-	2.c/	-ter-	2.e-/	-ter-	.	4e-/	.	4ee-\	.	4aa-\	.	4ccc\	.	2.aa-\	.	2.ccc\	.
8E-\L	.	.	.	.	.	8c/L	p	8a-/L	.	.	.	.	.	.	.	.	.	.	.	.	.	.	.	.	.	.	.	.	.	.	.
8E-\	p	.	.	.	.	8c/	.	8a-/	p	.	.	.	.	.	.	.	.	.	.	4r	.	4r	.	4r	.	4r	.	.	.	.	.
8E-\	.	.	.	.	.	8c/	.	8a-/	.	.	.	.	.	.	.	.	.	.	.	.	.	.	.	.	.	.	.	.	.	.	.
8E-\	.	.	.	.	.	8c/	.	8a-/	.	.	.	.	.	.	.	.	.	.	.	4r	.	4r	.	4r	.	4r	.	.	.	.	.
8E-\J	.	.	.	.	.	8c/J	.	8a-/J	.	.	.	.	.	.	.	.	.	.	.	.	.	.	.	.	.	.	.	.	.	.	.
!	!	!	!	!	!	!	!	!LO:LB:g=original	!	!	!	!	!	!	!	!	!	!	!	!	!	!LO:LB:g=original	!	!	!	!	!	!	!	!	!
=60	=60	=60	=60	=60	=60	=60	=60	=60	=60	=60	=60	=60	=60	=60	=60	=60	=60	=60	=60	=60	=60	=60	=60	=60	=60	=60	=60	=60	=60	=60	=60
8E-\|	f	2g\	.	2b-\	.	8G/	f	8B-/|	f	2.E-\	-num	.	2G/	-num	2B-/	-num	2.e-/	-num	.	4e-/	.	4ee-\	.	4gg\	.	4bb-\	.	2gg\	.	2bb-\	.
8E-\L	.	.	.	.	.	8g/L	p	8b-/L	p	.	.	.	.	.	.	.	.	.	.	.	.	.	.	.	.	.	.	.	.	.	.
8E-\	p	.	.	.	.	8g/	.	8b-/	.	.	.	.	.	.	.	.	.	.	.	4r	.	4r	.	4r	.	4r	.	.	.	.	.
8E-\	.	.	.	.	.	8e-/	.	8g/	.	.	.	.	.	.	.	.	.	.	.	.	.	.	.	.	.	.	.	.	.	.	.
8E-\	.	4r	.	4r	.	8e-/	.	8g/	.	.	.	.	4r	.	4r	.	.	.	.	4r	.	4r	.	4r	.	4r	.	4r	.	4r	.
8E-\J	.	.	.	.	.	8B-/J	.	8e-/J	.	.	.	.	.	.	.	.	.	.	.	.	.	.	.	.	.	.	.	.	.	.	.
!	!	!	!	!	!	!	!	!	!	!LO:LB:g=original	!	!	!	!	!	!	!	!	!	!	!	!	!	!	!	!	!	!LO:LB:g=original	!	!	!
=61	=61	=61	=61	=61	=61	=61	=61	=61	=61	=61	=61	=61	=61	=61	=61	=61	=61	=61	=61	=61	=61	=61	=61	=61	=61	=61	=61	=61	=61	=61	=61
8E-\|	f	2g\	.	2b-\	.	8G/	f	8B-/|	f	2E-\	qui-	.	2G/	qui-	2B-/	qui-	2e-/	qui-	.	4e-/	.	4ee-\	.	4gg\	.	4bb-\	.	2gg\	.	2bb-\	.
8E-\L	.	.	.	.	.	8B-/L	p	8g/L	.	.	.	.	.	.	.	.	.	.	.	.	.	.	.	.	.	.	.	.	.	.	.
8E-\	p	.	.	.	.	8B-/	.	8g/	p	.	.	.	.	.	.	.	.	.	.	4r	.	4r	.	4r	.	4r	.	.	.	.	.
8E-\	.	.	.	.	.	8B-/	.	8g/	.	.	.	.	.	.	.	.	.	.	.	.	.	.	.	.	.	.	.	.	.	.	.
8E-\	.	4b-\	.	4dd-X\	.	8B-/	.	8g/	.	4E-\	-a	.	4B-\	-a	4d-X/	-a	4e-/	-a	.	4r	.	4r	.	4r	.	4r	.	4bb-\	.	4ddd-X\	.
8E-\J	.	.	.	.	.	8B-/J	.	8g/J	.	.	.	.	.	.	.	.	.	.	.	.	.	.	.	.	.	.	.	.	.	.	.
!	!	!	!	!	!	!LO:LB:g=original	!	!	!	!	!	!	!LO:LB:g=original	!	!	!	!	!	!	!	!	!	!	!	!	!	!	!	!	!	!
=62	=62	=62	=62	=62	=62	=62	=62	=62	=62	=62	=62	=62	=62	=62	=62	=62	=62	=62	=62	=62	=62	=62	=62	=62	=62	=62	=62	=62	=62	=62	=62
8E-\|	f	2.a-\	.	2.cc\	.	8A-/	f	8c/	f	2E-\	pi-	.	2A-\	pi-	2c\	pi-	2e-/	pi-	.	4e-/	.	4ee-\	.	4aa-\	.	4ccc\	.	2.aa-\	.	2.ccc\	.
8E-\L	.	.	.	.	.	8c/L	.	8a-/L	.	.	.	.	.	.	.	.	.	.	.	.	.	.	.	.	.	.	.	.	.	.	.
8E-\	p	.	.	.	.	8c/	p	8a-/	.	.	.	.	.	.	.	.	.	.	.	4r	.	4r	.	4r	.	4r	.	.	.	.	.
8E-\	.	.	.	.	.	8c/	.	8a-/	p	.	.	.	.	.	.	.	.	.	.	.	.	.	.	.	.	.	.	.	.	.	.
8E-\	.	.	.	.	.	8c/	.	8a-/	.	4E-\	-us	.	4A-\	-us	4c\	-us	4e-/	-us	.	4r	.	4r	.	4r	.	4r	.	.	.	.	.
8E-\J	.	.	.	.	.	8c/J	.	8a-/J	.	.	.	.	.	.	.	.	.	.	.	.	.	.	.	.	.	.	.	.	.	.	.
!LO:PB:g=original	!	!	!	!	!	!	!	!	!	!	!	!	!	!	!	!	!	!	!	!	!	!	!	!	!	!	!	!	!	!	!
=63	=63	=63	=63	=63	=63	=63	=63	=63	=63	=63	=63	=63	=63	=63	=63	=63	=63	=63	=63	=63	=63	=63	=63	=63	=63	=63	=63	=63	=63	=63	=63
8E-\|	.	4g\	.	4b-\	.	8G/	f	8B-/	f	[<2.E-\	es	.	2.G/	es	[>2.B-/	es	[>2.e-/	es	.	4e-/	.	4ee-\	.	4gg\	.	4bb-\	.	4gg\	.	4bb-\	.
8EE-/L	.	.	.	.	.	8G/L	p	8B-/L	p	.	.	.	.	.	.	.	.	.	.	.	.	.	.	.	.	.	.	.	.	.	.
8EE-/	p	4g\	.	4b-\	.	8G/	.	8B-/	.	.	.	.	.	.	.	.	.	.	.	4e-/	.	4ee-\	.	4gg\	.	4bb-\	.	4gg\	.	4bb-\	.
8EE-/	.	.	.	.	.	8G/	.	8B-/	.	.	.	.	.	.	.	.	.	.	.	.	.	.	.	.	.	.	.	.	.	.	.
8EE-/	.	4g\	.	4b-\	.	8G/	.	8B-/	.	.	.	.	.	.	.	.	.	.	.	4e-/	.	4ee-\	.	4gg\	.	4bb-\	.	4gg\	.	4bb-\	.
8EE-/J	.	.	.	.	.	8G/J	.	8B-/J	f	.	.	.	.	.	.	.	.	.	.	.	.	.	.	.	.	.	.	.	.	.	.
=64	=64	=64	=64	=64	=64	=64	=64	=64	=64	=64	=64	=64	=64	=64	=64	=64	=64	=64	=64	=64	=64	=64	=64	=64	=64	=64	=64	=64	=64	=64	=64
2.EE-;/	.	2.g\	.	2.b-\	.	2.G/	.	2.B-/	.	2.E-;\]	.	.	2.G;/	.	2.B-;/]	.	2.e-;/]	.	.	2e-;/	.	2ee-;\	.	2.gg\	.	2.bb-\	.	2.gg\	.	2.bb-\	.
.	.	.	.	.	.	.	.	.	.	.	.	.	.	.	.	.	.	.	.	4r	.	4r	.	.	.	.	.	.	.	.	.
!	!	!LO:TX:i:b:t=Finis	!	!	!	!LO:TX:i:b:t=Finis	!	!LO:TX:i:b:t=Finis	!	!	!	!	!	!	!	!	!	!	!	!	!	!	!	!LO:TX:i:b:t=Finis.	!	!LO:TX:i:b:t=Finis.	!	!LO:TX:i:b:t=Finis	!	!LO:TX:i:b:t=Finis	!
==	==	==	==	==	==	==	==	==	==	==	==	==	==	==	==	==	==	==	==	==	==	==	==	==	==	==	==	==	==	==	==
*-	*-	*-	*-	*-	*-	*-	*-	*-	*-	*-	*-	*-	*-	*-	*-	*-	*-	*-	*-	*-	*-	*-	*-	*-	*-	*-	*-	*-	*-	*-	*-
!!!system-decoration: [(s1,s2,s3,s4)][(s5,s6)][(s7,s8,s9,s10)][(s11,s12,s13,s14)][(s15)]
!!!RDF**kern: > = above
!!!RDF**kern: < = below
!!!RDF**dynam: p = po&colon;
!!!RDF**dynam: f = fr&colon;
!!!ENC: Marta Chmielewska
!!!END: 2020-07-07
!!!EED: Leszek Kubiak
!!!EST: 2020-09-22
!!!RDF**kern: | = vertical stroke
